!!!!SEGMENT: 065-1-BH-002.krn
!!!COM: Chopin, Frederic
!!!OTL: Sonata g-minor
!!!PTL: SONATE | pour Piano et Violoncelle
!!!PPR: Breitkopf & Härtel
!!!PPP: Leipzig
!!!OPS: Op. 65
!!!NIFC-rismID: brak
!!!NIFC-shelfmark: PL-Wbfc 4692/n
!!!OMV: 2
**kern	**kern	**fing	**dynam	**kern	**fing	**dynam
*part2	*part2	*	*	*part1	*	*
*I"SCHERZO.	*I"SCHERZO.	*	*	*	*	*
*staff3	*staff2	*	*	*staff1	*	*
*clefF4	*clefG2	*	*	*clefF4	*	*
*k[b-]	*k[b-]	*	*	*k[b-]	*	*
*M3/4	*M3/4	*	*	*M3/4	*	*
*kcancel	*kcancel	*	*	*kcancel	*	*
*>[A,B,B1,B,B2,C]	*>[A,B,B1,B,B2,C]	*	*	*>[A,B,B1,B,B2,C]	*	*
*	*	*	*	*cue	*	*
=1	=1	=1	=1	=1	=1	=1
*>A	*>A	*>A	*>A	*>A	*	*>A
!	!	!	!	!	!	!LO:DY:rj
4r	4r	.	.	4A	.	f
=2	=2	=2	=2	=2	=2	=2
4D'< 4DD'<	4a'> 4f'> 4d'> 4A<'>	.	f	4A'>	.	.
4r	4r	.	.	(>\8AL	.	.
.	.	.	.	8B-J)	.	.
4r	4r	.	.	(>\8B-L	.	.
.	.	.	.	8AJ)	.	.
=3	=3	=3	=3	=3	=3	=3
4r	4r	.	.	(>\8AL	.	.
.	.	.	.	8d	.	.
4r	4r	.	.	8c#X	.	.
.	.	.	.	8dJ	.	.
4AA'<\ 4AAA'<\	4a'> 4g'> 4c#X'> 4A<'>	.	.	4e)^>	.	sf
=4	=4	=4	=4	=4	=4	=4
4D'<\ 4DD\	4a'> 4f'> 4d'> 4A<'>	.	.	4f'>	.	.
4r	4r	.	.	(>\8AL	.	[
.	.	.	.	8B-)	.	.
4r	4r	.	.	(>\8B-	.	.
.	.	.	.	8AJ)	.	.
=5	=5	=5	=5	=5	=5	=5
4r	4r	.	.	(>\8AL	.	.
.	.	.	.	8F	.	.
4r	4r	.	.	8E	.	.
.	.	.	.	8DJ	.	.
4E'<\ 4EE'<\	4e'> 4d'> 4G#X<'>	.	.	4E)	.	.
=6	=6	=6	=6	=6	=6	=6
*	*^	*	*	*	*	*
*ped	*	*	*	*	*	*	*
4E'<\ 4AA'<	4ryy	4e'> 4c#X'> 4A<'>	.	.	4AA'<	.	.
4r	(>2a^>	4rB	.	.	4r	.	.
*	*	*	*	*	*clefG2	*	*
!	!	!	!	!LO:DY:rj	!	!	!
4A	.	4c#	.	p	(<4e	.	p
*Xped	*	*	*	*	*	*	*
.	.	.	.	.	.	.	.
=7	=7	=7	=7	=7	=7	=7	=7
!	!LO:TUP:a	!	!	!	!	!	!
!	!LO:TX:t=P:stem-side tuplet number:problem	!	!	!	!	!	!
4A'> 4D'>	12aL	4d	.	.	4f)	.	.
.	12b-	.	.	.	.	.	.
.	12aJ	.	.	.	.	.	.
4r	8g#XL	4rA	.	.	(<2d	.	.
*ped	*	*	*	*	*	*	*
.	8bn	.	.	.	.	.	.
4A 4D	8dd	4f	.	.	.	.	.
*Xped	*	*	*	*	*	*	*
.	8ffJ	.	.	.	.	.	.
*	*v	*v	*	*	*	*	*
!!LO:LB:g=original
=8	=8	=8	=8	=8	=8	=8
4A'> 4AA'>	4ee'>\) 4cc#X'>\ 4e'>\	.	.	4a)	.	.
4r	4r	.	.	(<2e	.	.
4A 4AA	(>4a 4c#X	.	.	.	.	.
=9	=9	=9	=9	=9	=9	=9
*	*^	*	*	*	*	*
!	!LO:TUP:a	!	!	!	!	!	!
!	!LO:TX:t=P:stem-side tuplet number:problem	!	!	!	!	!	!
4D\	12aL	4d	.	.	4f)	.	.
.	12b-	.	.	<	.	.	.
.	12aJ	.	.	.	.	.	.
4r	8g#XL	4rB	.	.	(<2d	.	.
.	8bn	.	.	.	.	.	.
4A\ 4D\	8dd	4f	.	.	.	.	.
.	8ffJ	.	.	[	.	.	.
*	*v	*v	*	*	*	*	*
=10	=10	=10	=10	=10	=10	=10
4A'> 4AA'>	4ee'>\) 4cc#X'>\ 4e'>\	.	.	2.a)	.	.
*clefG2	*	*	*	*	*	*
(>8aaL	(>8aaaL	.	.	.	.	.
.	.	.	>	.	.	.
8dd#X	8ddd#X	.	.	.	.	.
8ee	8eee	.	.	.	.	.
8ffJ	8fffJ	.	.	.	.	.
=11	=11	=11	=11	=11	=11	=11
8eeL	8eeem>L	.	.	(>2e	.	.
8a	8aa	.	.	.	.	.
8b-X	8bb-X	.	.	.	.	.
8ccny	8ccc	.	.	.	.	.
8b-	8bb-	.	.	4cc#X)	.	.
8g#XJ	8gg#XJ	.	]	.	.	.
=12	=12	=12	=12	=12	=12	=12
8aL>	8aaL	.	.	2.cc#X	.	.
8b-X	8bb-X	.	.	.	.	.
8a	8aa	.	.	.	.	.
8d#X	8dd#X	.	.	.	.	.
8e	8ee	.	.	.	.	.
8fJ	8ffJ	.	.	.	.	.
*clefF4	*	*	*	*	*	*
=13	=13	=13	=13	=13	=13	=13
8eL	8eem>/L<	.	.	2.rdd	.	.
8A	8a	.	.	.	.	.
8B-X	8b-X	.	.	.	.	.
8c	8cc	.	.	.	.	.
8B-	8b-	.	.	.	.	.
8G#XJ)	8g#XJ)	.	.	.	.	.
*	*	*	*	*clefF4	*	*
=14	=14	=14	=14	=14	=14	=14
4A 4AA	4a	.	.	8A	.	.
.	.	.	.	8r	.	.
4r	4r	.	.	(>\8B-XL	.	.
.	.	.	.	8A	.	.
4r	4r	.	.	8c	.	.
.	.	.	.	8B-J	.	.
!!LO:LB:g=original
=15	=15	=15	=15	=15	=15	=15
4AA'< 4AAA'<	4a'< 4e'< 4c#X'<	.	p	8G)	.	.
.	.	.	.	8r	.	.
4r	4r	.	.	(>8A\L	.	.
.	.	.	.	8G	.	.
4r	4r	.	.	8B-	.	.
.	.	.	.	8AJ	.	.
=16	=16	=16	=16	=16	=16	=16
4AA'< 4AAA'<	4a'< 4d'< 4B-X'<	.	.	8F\)	.	.
.	.	.	.	8r	.	.
4r	4r	.	.	(>8G\L	.	.
.	.	.	.	8F	.	.
4r	4r	.	.	8A	.	.
.	.	.	.	8GJ	.	.
=17	=17	=17	=17	=17	=17	=17
4AA'< 4AAA'<	4a'< 4c#X'< 4A'<	.	.	8E)	.	.
.	.	.	.	8r	.	.
4r	4r	.	.	(>8F\L	.	<
.	.	.	.	8E	.	.
!	!	!	!LO:DY:rj	!	!	!
4AA	4a'> 4A<'>	.	f	8G	.	.
.	.	.	>	8FJ	.	.
=18	=18	=18	=18	=18	=18	=18
4D 4DD	4a'> 4f'> 4d'> 4A<'>	.	]	8D)	.	[
.	.	.	.	8r	.	.
(>8AL	(<8aL	.	[	4r	.	.
8B-J	8b-J	.	.	.	.	.
8B-L	8b-L	.	.	4r	.	.
8AJ)	8aJ)	.	.	.	.	.
=19	=19	=19	=19	=19	=19	=19
(>8AL	(>8aL	.	.	4r	.	.
8d	8dd	.	<	.	.	.
8c#X	8cc#X	.	.	4r	.	.
8dJ)	8ddJ)	.	.	.	.	.
!	!	!	!	!	!	!LO:DY:rj
4A'> 4AA'>	4ee'> 4cc#'> 4a'> 4g'>	.	.	4A'> 4E'> 4AA'>	.	f
=20	=20	=20	=20	=20	=20	=20
4A'> 4D'>	4ff'> 4dd'> 4a'> 4f'>	.	[	4A'> 4D'>	.	.
(>8AL	(<8aL	.	[	4r	.	.
8B-J	8b-J	.	.	.	.	.
8B-L	8b-L	.	.	4r	.	.
8AJ)	8aJ)	.	.	.	.	.
=21	=21	=21	=21	=21	=21	=21
(>8AL	(<8aL	.	.	4r	.	.
8F	8f	.	.	.	.	.
8E	8e	.	.	4r	.	.
8DJ)	8dJ)	.	.	.	.	.
4E'<\ 4AA'<\	4e^<'> 4c'> 4A<'>	.	.	(>4E	.	.
!!LO:LB:g=original
=22	=22	=22	=22	=22	=22	=22
*	*^	*	*	*	*	*
!	!LO:TX:t=P:staccato above and below:problem	!	!	!	!	!	!
4A'< 4E'< 4AA'<	4e'< 4c'<	4rFyy	.	.	4c)	.	.
2D^<	(>2f#X	8cL	.	.	(>8A\L	.	.
.	.	8d	.	.	8B-)	.	.
.	.	8c	.	.	(>8B-	.	.
.	.	8dJ	.	.	8AJ	.	.
=23	=23	=23	=23	=23	=23	=23	=23
4GG	4g	8B-L	.	.	4G)	.	.
.	.	8d	.	.	.	.	.
2C^< 2CC	4d	8B-	.	.	(>8G\L	.	.
.	.	8c	.	.	8A)	.	.
.	4e	8B-	.	.	(>8A	.	.
.	.	8cJ	.	.	8GJ	.	.
=24	=24	=24	=24	=24	=24	=24	=24
4FF	4f	8A<L	.	.	4F)	.	.
.	.	8c<	.	.	.	.	.
2BBn^< 2BBBn	4c	8A<	.	.	(>8F\L	.	.
.	.	8Bn<	.	.	8G)	.	.
.	4d	8A<	.	.	(>8G	.	.
.	.	8B<J	.	.	8FJ	.	.
*	*v	*v	*	*	*	*	*
=25	=25	=25	=25	=25	=25	=25
*^	*	*	*	*	*	*
8G#XL	4EE	4e	.	.	4E)	.	.
8Bn	.	.	.	.	.	.	.
8Gn	2AA^< 2AAA	4Bn	.	.	(>8E\L	.	.
8A	.	.	.	.	8F)	.	.
8G	.	4c#X	.	.	(>8F	.	.
8AJ	.	.	.	.	8EJ	.	.
*v	*v	*	*	*	*	*	*
=26	=26	=26	=26	=26	=26	=26
*ped	*	*	*	*	*	*
4BB- 4BBB-	4d) 4F<	.	fz	2.D)	.	.
*clefG2	*	*	*	*	*	*
(>8bb-L	(>8bbb-L	.	.	.	.	.
8ee	8eee	.	.	.	.	.
8ff	8fff	.	>	.	.	.
8ggJ	8gggJ	.	.	.	.	.
=27	=27	=27	=27	=27	=27	=27
8ffL	8fffM>L	.	.	(>2c	.	<
8a	8aa	.	.	.	.	.
8b-	8bb-	.	.	.	.	.
8cc	8ccc	.	.	.	.	.
8b-	8bb-	.	.	4B-)	.	.
8eJ	8eeJ	.	.	.	.	.
*	*	*	*	*clefG2	*	*
=28	=28	=28	=28	=28	=28	=28
*Xped	*	*	*	*	*	*
8f/L	8ffL	.	.	2.a-X	.	[
8g	8gg	.	.	.	.	.
8f	8ff	.	.	.	.	.
8A	8a	.	.	.	.	.
8B-	8b-	.	.	.	.	.
8cJ	8ccJ	.	.	.	.	.
*clefF4	*	*	*	*	*	*
!!LO:PB:g=original
=29	=29	=29	=29	=29	=29	=29
8B-L	8b-M<L	.	.	2.rdd	.	.
8E	8e	.	.	.	.	.
8F	8f	.	.	.	.	.
8GJ	8gJ	.	.	.	.	.
4F)	4f)	.	.	.	.	.
.	.	.	]	.	.	.
=30	=30	=30	=30	=30	=30	=30
4r	4r	.	.	(<2.f^<	.	.
4r	4r	.	.	.	.	.
.	.	.	.	.	.	.
!	!	!	!LO:DY:rj	!	!	!
*ped	*	*	*	*	*	*
4BB-'<\ 4BBB-'<\	4b-'> 4d'> 4A-X<'>	.	f	.	.	.
=31	=31	=31	=31	=31	=31	=31
*Xped	*	*	*	*	*	*
4r	4r	.	.	4B-	.	.
4r	4r	.	.	4e-X	.	.
*ped	*	*	*	*	*	*
4E-X'<\ 4EE-X'<\	4g'> 4e-'> 4B-<'> 4G<'>	.	.	4d)	.	.
=32	=32	=32	=32	=32	=32	=32
*Xped	*	*	*	*	*	*
4r	4r	.	.	2.c#X	.	.
4En'<\ 4EEn'<\	4a'> 4g'> 4A<'>	.	.	.	.	.
4AA'< 4AAA'<	4aa'> 4gg'> 4a'>	.	.	.	.	.
=33	=33	=33	=33	=33	=33	=33
4r	4r	.	.	(<2.d	3	.
*ped	*	*	*	*	*	*
4A'> 4D'>	4dd'< 4f'< 4d'<	.	.	.	.	.
4D'< 4DD'<	4ddd'> 4ff'> 4dd'>	.	.	.	.	.
*Xped	*	*	*	*	*	*
=34	=34	=34	=34	=34	=34	=34
4DD'< 4DDD'<	4a'< 4f#X'< 4d'< 4c'<	.	.	4dd)	3 0	.
4r	4r	.	.	(<8dL	.	.
.	.	.	.	8e)	.	.
4r	4r	.	.	(<8e	.	.
.	.	.	.	8dJ)	.	.
=35	=35	=35	=35	=35	=35	=35
4r	4r	.	.	(<8dL	.	.
.	.	.	.	8g	.	.
4r	4r	.	.	8f#X	.	.
.	.	.	.	8gJ	.	.
4D'< 4DD'<	4a'< 4f#X'< 4d'< 4c'<	.	.	4a)	.	sf
=36	=36	=36	=36	=36	=36	=36
4G'</ 4D'</ 4GG'</	4b-'< 4g'< 4d'< 4B-'<	.	.	4b-\	.	.
4r	4r	.	.	(<8dL	.	.
.	.	.	.	8e-y)	.	.
4r	4r	.	.	(<8e-	.	.
.	.	.	.	8dJ)	.	.
*	*	*	*	*clefF4	*	*
!!LO:LB:g=original
=37	=37	=37	=37	=37	=37	=37
4r	4r	.	.	(>\8dL	.	.
.	.	.	.	8B-	.	.
4r	4r	.	.	8A	.	.
.	.	.	.	8GJ)	.	.
4G'</ 4D'</ 4GG'</	4b-'< 4g'< 4d'< 4B-'<	.	.	4B- 4D 4GG	.	.
=38	=38	=38	=38	=38	=38	=38
4E-X'< 4EE-X'<	4ee-X'< 4g'< 4e-X'< 4d-X'<	.	.	4E-X	.	.
(>8E-L	(<8e-L	.	.	4r	.	.
8F-X	8f-X	.	.	.	.	.
8F-	8f-	.	.	4r	.	.
8E-J	8e-J	.	.	.	.	.
=39	=39	=39	=39	=39	=39	=39
8E-XL	8e-XL	.	.	4r	.	.
8A-X	8a-X	.	.	.	.	.
8G	8g	.	.	4r	.	.
8A-J)	8a-J)	.	.	.	.	.
4E-'< 4EE-X'<	4b-'< 4g'< 4e-'< 4d-X'<	.	.	4EE-X	.	.
=40	=40	=40	=40	=40	=40	=40
4A-X'> 4E-X'> 4AA-X'>	4cc-X'< 4a-X'< 4e-X'< 4c-X'<	.	.	4E-X 4AA-X	.	.
(<8E-L	(>8e-L	.	.	4r	.	.
8F-X	8f-X	.	.	.	.	.
8F-	8f-	.	.	4r	.	.
8E-J	8e-J	.	.	.	.	.
=41	=41	=41	=41	=41	=41	=41
8E-X\L	8e-XL	.	.	4r	.	.
8C-X	8c-X	.	.	.	.	.
8BB-	8B-<	.	.	4r	.	.
8AA-X<J)	8A-X<J)	.	.	.	.	.
4A-y 4AA-	4cc-X 4e- 4c-	.	.	4G#X	.	p
=42	=42	=42	=42	=42	=42	=42
!	!LO:TX:b:i:t=dolce	!	!	!LO:TX:b:t=dolce	!	!
*ped	*	*	*	*	*	*
4F#X 4FF#X	(<4dd#X 4f#X	.	>	(>4A#X	.	.
4A#X 4F#	4cc#X 4e	.	.	4f#X)	.	.
*Xped	*	*	*	*	*	*
.	.	.	.	.	.	.
4Bn 4F#	4bn 4d#X)	.	]	4f#	.	]
=43	=43	=43	=43	=43	=43	=43
*	*^	*	*	*	*	*
!	!LO:TUP:a	!	!	!	!	!	!
!	!LO:TX:t=P:stem-side tuplet number:problem	!	!	!	!	!	!
4c#X 4F#X	(>12bnL	4e	.	.	(>4f#X	.	.
.	12cc#X	.	.	.	.	.	.
.	12bJ	.	.	.	.	.	.
4r	8a#XL	4a#X	.	<	2c#X)	.	.
.	8cc#X	.	.	.	.	.	.
4F# 4FF#X	8ee	4g#X	.	.	.	.	.
.	8gg#XJ	.	.	.	.	.	.
.	.	.	.	[	.	.	.
!!LO:LB:g=original
=44	=44	=44	=44	=44	=44	=44	=44
*ped	*	*	*	*	*	*	*
4FF#X 4FFF#X	4rdddyy	4ff#X'> 4dd#X'> 4f#X'>)	.	.	(>4d#X	.	.
4r	(>2bn^>	4rcyy	.	.	4g#X	.	.
*Xped	*	*	*	*	*	*	*
4Bn 4F#X	.	4d#X	.	.	4f#X)	.	.
=45	=45	=45	=45	=45	=45	=45	=45
!	!LO:TUP:a	!	!	!	!	!	!
!	!LO:TX:t=P:stem-side tuplet number:problem	!	!	!	!	!	!
4c#X 4F#X	12bnL	4e	.	.	(>4f#X	.	.
.	12cc#X	.	.	.	.	.	.
.	12bJ	.	.	.	.	.	.
4r	8a#XL	4a#X	.	<	2c#X)	.	.
.	8cc#	.	.	.	.	.	.
4F# 4FF#X	8ee	4a#	.	.	.	.	.
.	8aa#XJ	.	.	[[	.	.	.
*	*	*	*	*	*clefG2	*	*
*	*v	*v	*	*	*	*	*
=46	=46	=46	=46	=46	=46	=46
*ped	*	*	*	*	*	*
4BBn 4BBBn	4bbn'> 4dd#X'> 4bn'>)	.	fz	2.d#X	.	.
*clefG2	*	*	*	*	*	*
(>8bbnL	(>8bbbL	.	>	.	.	.
8ee#X	8eee#X	.	.	.	.	.
8ff#X	8fff#X	.	.	.	.	.
8ggnJ	8gggnJ	.	.	.	.	.
=47	=47	=47	=47	=47	=47	=47
8ff#XL	8fff#Xt>L	.	.	(>2f#X	.	.
8bn	8bbn	.	.	.	.	.
8ccn	8cccn	.	.	.	.	.
8dd	8ddd	.	.	.	.	.
8cc	8ccc	.	.	4dd#X)	.	.
8a#XJ	8aa#XJ	.	.	.	.	.
=48	=48	=48	=48	=48	=48	=48
8bn/L	8bbnL	.	.	2.dd#X	.	.
8cc	8ccc	.	.	.	.	.
8b	8bb	.	.	.	.	.
8e#X	8ee#X	.	.	.	.	.
8f#X	8ff#X	.	.	.	.	.
8gJ	8ggJ	.	.	.	.	.
=49	=49	=49	=49	=49	=49	=49
8f#XL	8ff#Xt>L	.	.	2.rdd	.	.
8Bn	8bn	.	.	.	.	.
8cn	8ccn	.	.	.	.	.
8d	8dd	.	.	.	.	.
8c	8cc	.	.	.	.	.
8A#XJ	8a#XJ	.	]	.	.	.
*clefF4	*	*	*	*clefF4	*	*
!!LO:LB:g=original
=50	=50	=50	=50	=50	=50	=50
4Bn)	4bn)	.	.	8Bn	.	.
.	.	.	.	8r	.	.
4r	4r	.	.	(>\8cL	.	.
.	.	.	.	8B	.	.
4r	4r	.	.	8d	.	.
.	.	.	.	8cJ	.	.
=51	=51	=51	=51	=51	=51	=51
4BBn'< 4BBBn'<	4bn'< 4f#X'< 4d#X'<	.	.	8A)	.	.
.	.	.	.	8r	.	.
4r	4r	.	.	(>\8BnL	.	.
.	.	.	.	8A	.	.
4r	4r	.	.	8c	.	.
.	.	.	.	8BJ	.	.
=52	=52	=52	=52	=52	=52	=52
4BBn'< 4BBBn'<	4bn'< 4e'< 4c'<	.	.	8G)	.	.
.	.	.	.	8r	.	.
4r	4r	.	.	(>\8AL	.	.
.	.	.	.	8G	.	.
4r	4r	.	.	8Bn	.	.
.	.	.	.	8AJ	.	.
=53	=53	=53	=53	=53	=53	=53
4BBn'< 4BBBn'<	4bn'< 4d#X'< 4Bn'<	.	.	8F#X)	.	.
.	.	.	.	8r	.	.
4r	4r	.	.	(>\8GL	.	.
.	.	.	.	8F#	.	.
4r	4r	.	.	8A	.	.
.	.	.	.	8GJ	.	.
=54	=54	=54	=54	=54	=54	=54
*	*	*	*^	*	*	*
4E'< 4EE'<	4e'<	.	.	.	8E)	.	.
.	.	.	.	.	8r	.	.
!	!LO:TX:t=P:rendering:złe wyświetlanie łuku:problem	!	!	!	!	!	!
4r	(>8ffnL	.	>	.	4r	.	.
.	8ee	.	.	.	.	.	.
4r	8gg	.	.	.	4r	.	.
.	8ffJ	.	.	.	.	.	.
=55	=55	=55	=55	=55	=55	=55	=55
*	*	*	*	*	*	*	*^
!	!LO:S:s=1:note:problem:note-level slur	!	!	!	!	!	!	!
4E'< 4EE'<	4dd'<) 4bn'< 4f'<	.	]	.	2.G#X 2.BBn	.	<	.
.	.	.	>	.	.	.	.	.
!	!LO:TX:t=P:rendering:złe wyświetlanie łuku:problem	!	!	!	!	!	!	!
4r	(>8eeL	.	.	<	.	.	.	.
.	8dd	.	.	.	.	.	.	.
4r	8ff	.	.	.	.	.	.	.
.	8eeJ	.	]]	.	.	.	.	.
=56	=56	=56	=56	=56	=56	=56	=56	=56
!	!LO:S:s=1:note:problem:note-level slur	!	!	!	!	!	!	!
!	!	!	!	!	!	!	!	!LO:HP:b:t=cresc.:problem
4EE'< 4EEE'<	4cc) 4a 4e	.	>	.	2.A 2.C	.	.	<
!	!LO:TX:t=P:rendering:złe wyświetlanie łuku:problem	!	!	!	!	!	!	!
4r	(>8ddL	.	.	.	.	.	.	.
.	8cc	.	.	.	.	.	.	.
4r	8ee	.	.	.	.	.	.	.
.	8ddJ	.	]]	.	.	.	.	.
=57	=57	=57	=57	=57	=57	=57	=57	=57
!	!LO:S:s=1:note:problem:note-level slur	!	!	!	!	!	!	!
4E'< 4EE'<	4bn'<) 4g#X'< 4d'<	.	.	.	2.Bn 2.D	.	.	.
4r	(>8ccL	.	>	.	.	.	[	.
.	8b	.	.	.	.	.	.	.
4r	8dd	.	.	.	.	.	.	.
.	8ccJ	.	]]	.	.	.	.	.
*	*	*	*v	*v	*	*	*v	*v
!!LO:PB:g=original
=58	=58	=58	=58	=58	=58	=58
!	!LO:TX:t=P:brak zakończenia łuku:problem	!	!	!	!	!
2.E-X 2.EE-X	2.a^<) 2.g 2.c	.	.	4c'> 4E-X'>	.	.
.	.	.	.	(>\8AL	.	.
.	.	.	.	8Bn)	.	.
.	.	.	.	(>8B	.	.
.	.	.	.	8AJ)	.	.
=59	=59	=59	=59	=59	=59	=59
2.D 2.DD	2.cc^< 2.f#X	.	.	(>8D\L	.	.
.	.	.	.	8A	.	.
.	.	.	.	8G#X	.	.
.	.	.	.	8AJ	.	.
.	.	.	.	4d	.	.
=60	=60	=60	=60	=60	=60	=60
*	*^	*	*	*	*	*
(<2D 2DD	(>4cc	2.fn	.	>	4G)	.	.
.	8b-XL	.	.	.	(>8G\L	.	.
.	8a	.	.	.	8A)	.	.
4D-X 4DD-X)	8cc	.	.	.	(>8A	.	.
.	8b-J	.	.	]	8GJ)	.	.
=61	=61	=61	=61	=61	=61	=61	=61
4C'< 4CC'<	2.b-)	(>4e	.	.	(>8G\L	.	.
.	.	.	.	.	8c	.	.
4r	.	8eL	.	.	8e	.	.
.	.	8d	.	.	8fJ	.	.
!	!	!	!	!	!LO:TX:t=P:w źródle "1" znajduje sie pod łukiem:problem	!	!
4En'< 4EEn'<	.	8d	.	.	4g	1	.
.	.	8cJ)	.	.	.	.	.
*	*v	*v	*	*	*	*	*
*	*	*	*	*clefG2	*	*
=62	=62	=62	=62	=62	=62	=62
*^	*	*	*	*	*	*
4rdyy	4F/ 4FF/	4a-X/ 4c/	.	fz	4a-X)	.	fz
2d-X^	4r	4r	.	.	(<8a-L	.	p
.	.	.	.	.	8b-J)	.	.
.	4A-X'>\ 4D-X'>\	(>4dd-X 4f	.	p	(<8b-L	.	.
.	.	.	.	.	8a-J)	.	.
*v	*v	*	*	*	*	*	*
=63	=63	=63	=63	=63	=63	=63
*	*^	*	*	*	*	*
!	!LO:TUP:b	!	!	!	!	!	!
!	!LO:TX:a:t=P:note-head-side tuplet number:problem	!	!	!	!	!	!
4A-X'> 4E-X'>	12dd-XL	4g-X	.	.	(<4a-X	.	.
.	12ee-X	.	.	.	.	.	.
.	12dd-J	.	.	.	.	.	.
4r	8ccL	4cc	.	.	2e-X	.	.
.	8ee-	.	.	.	.	.	.
4A- 4AA-X	8gg-X	4b-	.	.	.	.	.
*ped	*	*	*	*	*	*	*
.	8bb-J	.	.	.	.	.	.
=64	=64	=64	=64	=64	=64	=64	=64
4AA-X 4AAA-X	4rdddyy	4aa-X) 4ff 4a-X	.	.	4f)	.	.
4r	(>2dd-X^>	4re	.	.	(<8a-XL	.	.
.	.	.	.	.	8b-J)	.	.
4d-X 4A-X	.	4f	.	.	(<8b-L	.	.
.	.	.	.	.	8a-J)	.	.
!!LO:LB:g=original
=65	=65	=65	=65	=65	=65	=65	=65
!	!LO:TUP:b	!	!	!	!	!	!
!	!LO:TX:t=P:w źródle "3" znajduje się na pięciolinii:problem	!	!	!	!	!	!
4e-X 4A-X	12dd-XL	4g-X	.	.	(<4a-X	.	.
.	12ee-X	.	.	.	.	.	.
.	12dd-J	.	.	.	.	.	.
4r	8ccL	4cc	.	<	8e-XL	.	.
.	8ee-	.	.	.	8g-X	.	.
4A- 4AA-X	8gg-X	4cc	.	.	8f	.	.
.	8cccJ	.	.	[[	8e-J	.	.
=66	=66	=66	=66	=66	=66	=66	=66
*ped	*	*	*	*	*	*	*
4D-X 4DD-X	4raaayy	4ddd-X'> 4aa-'> 4ff'> 4dd-X'>)	.	f	4f)	.	.
*	*	*	*	*	*clefF4	*	*
4d-X 4D-	8cc-XL	4f	.	.	(>8A-X\L	.	.
.	8b-	.	.	.	8B-)	.	.
4d- 4D-	8dd-	4f	.	.	(>8B-	.	f>
.	8cc-J	.	.	.	8A-J)	.	.
*	*v	*v	*	*	*	*	*
=67	=67	=67	=67	=67	=67	=67
!	!LO:N:vis=2	!	!	!	!	!
2d-X 2A-X 2D-X	(>8bn/L 8f/	.	>	2A-X	.	]]
.	8ff	.	.	.	.	.
.	8een	.	.	.	.	.
.	8ffJ	.	]]	.	.	.
4c'> 4A-'> 4C'>	4aa-X'> 4ff'> 4c'>c 4a-X'>)	.	fz	4C	.	.
=68	=68	=68	=68	=68	=68	=68
!	!LO:N:vis=2	!	!	!	!	!
4r	(>8cc/L 8f/	.	>	2A-X	.	.
.	8ff	.	.	.	.	.
4r	8ee	.	.	.	.	.
.	8ffJ	.	]]	.	.	.
!	!	!	!LO:HP:b=2	!	!	!
!LO:TX:b:t=P:diminuendolike accent:problem	!	!	!	!	!	!
[>4C-X^< [<4CC-X	4aa-X'> 4dd-X'> 4a-X'>)	.	fz	4C-X	.	.
=69	=69	=69	=69	=69	=69	=69
4C-X] 4CC-X]	(>8dd-XL 8f	.	.	4A-X	.	.
.	8ff	.	.	.	.	.
4BB- 4BBB-	8ee	.	.	4BB-	.	.
.	8ffJ	.	.	.	.	.
4BB- 4BBB-	4dddn) 4ff 4ddn	.	fz	8A-\L	.	.
.	.	.	.	8B-J	.	.
=70	=70	=70	=70	=70	=70	=70
8BB-L	4fff'> 4aa-X'> 4ff'>	.	ff	4c-X	.	.
8AAAn	.	.	.	.	.	.
8BBB-	(>8fff^<L 8ddd 8ff	.	.	2a-X\ 2Bn\	.	.
8BB-	8ggg 8eee-X 8gg	.	.	.	.	.
8AAA	8ggg 8eee- 8gg	.	.	.	.	.
8BBB-J	8fffJ 8ddd 8ff	.	.	.	.	.
=71	=71	=71	=71	=71	=71	=71
8BB-L	(>4eeen'> 4ccc'> 4een'>)	.	.	4g 4cn	.	.
8AAA	.	.	.	.	.	.
8BBB-	8eee-X^<L 8ccc 8ee-X	.	.	2f#X 2A	.	.
8BB-	8fff 8ddd 8ff	.	.	.	.	.
8AAA	8fff 8ddd 8ff	.	.	.	.	.
8BBB-J	8eee-J 8ccc 8ee-	.	.	.	.	.
!!LO:LB:g=original
=72	=72	=72	=72	=72	=72	=72
8BB-L	4ddd'> 4bb-'> 4dd'>)	.	.	4g 4B-X	.	.
8AAA	.	.	.	.	.	.
8BBB-	(>8bb-^<L 8gg 8b-	.	.	2c#X 2E	.	.
8BB-	8ccc 8aa-X 8cc	.	.	.	.	.
8AAA	8ccc 8aa- 8cc	.	.	.	.	.
8BBB-J	8bb-J 8gg 8b-	.	.	.	.	.
=73	=73	=73	=73	=73	=73	=73
8BB-L	4aa-X'> 4ff'> 4a-X'>)	.	.	4d 4F	.	.
8AAAn	.	.	.	.	.	.
8BBB-	(>8ff^<L 8dd 8f	.	.	2d 2F	.	.
8BB-	8gg 8ee 8g	.	.	.	.	.
(<8GGG	8gg 8ee 8g	.	.	.	.	.
8GGG#XJ	8ffJ 8dd 8f)	.	.	.	.	.
=74	=74	=74	=74	=74	=74	=74
4AA'< 4AAA'<)	8ff^<L 8cc#X 8f	.	.	4A	.	.
.	8eeJ 8e	.	.	.	.	.
!LO:TX:t=P:rendering:decrescendo nakłada się na laski nut i belkę:problem	!	!	!	!	!	!
8c#X>L	(>8eL	.	>	2A 2E 2AA	.	.
8d>	8b- 8f	.	.	.	.	.
8d>	8b- 8f	.	]	.	.	.
8c#>J	8aJ 8e)	.	.	.	.	.
=75	=75	=75	=75	=75	=75	=75
*	*	*	*	*^	*	*
*	*	*	*	*	*cue	*	*
*ped	*	*	*	*	*	*	*
(>8BnL	(>8dL	.	.	2A	(>4F	.	.
8F	8g#X 8f	.	.	.	.	.	.
8B	8d	.	.	.	4D)	.	.
8DJ	8bnJ 8g#	.	.	.	.	.	.
*Xped	*	*	*	*	*	*	*
4AA)	4ff)	.	.	4reyy	4A 4D 4AA	.	.
*	*	*	*	*v	*v	*	*
=76	=76	=76	=76	=76	=76	=76
!	!	!	!	!LO:TX:t=P:vertical slur from 4AA to 4c#:problem	!	!
*ped	*	*	*	*	*	*
4AA 4AAA	4ee'</ 4cc'</ 4e'</	.	.	4c#X 4E 4AA	.	.
(>8c#XL	(<8aL 8e	.	.	2A 2E 2AA	.	.
8d	8b- 8f	.	.	.	.	.
8d	8b- 8f	.	.	.	.	.
*Xped	*	*	*	*	*	*
8c#J)	8aJ 8e)	.	.	.	.	.
=77	=77	=77	=77	=77	=77	=77
*	*	*	*	*^	*	*
*ped	*	*	*	*	*	*	*
(>8BnL	(>8dL	.	>	2A	(>4F	.	.
8F	8g#X 8fn	.	.	.	.	.	.
8B	8d	.	]	.	4D)	.	.
8DJ	8bnJ 8g#	.	.	.	.	.	.
4AA)	4ffn)	.	.	4rfyy	4A 4D 4AA	.	.
*Xped	*	*	*	*	*	*	*
.	.	.	.	.	.	.	.
*	*	*	*	*v	*v	*	*
=78	=78	=78	=78	=78	=78	=78
!LO:TX:t=P:rendering:decrescendo nakłada się na laski nut i belkę:problem	!	!	!	!	!	!
(<8g#X>L	(>8bnL	.	>	2.f	.	.
8f>	8ff 8dd	.	.	.	.	.
8g#>	8b	.	.	.	.	.
8d>J	8ffJ 8dd	.	]	.	.	.
4A)	4bbn/)	.	>	.	.	.
!!LO:LB:g=original
=79	=79	=79	=79	=79	=79	=79
*ped	*	*	*	*	*	*
!LO:TX:t=P:rendering:decrescendo nakłada się na laski nut i belkę:problem	!	!	!	!	!	!
(<8bn>L	(>8dd/L	.	.	(>2e	.	.
.	.	.	>	.	.	.
8f>	8gg#X 8ff	.	.	.	.	.
8b>	8dd	.	.	.	.	.
8d>J	8gg#J 8ff	.	]	.	.	.
4A)	4ddd/)	.	.	4d)	.	.
*Xped	*	*	*	*	*	*
.	.	.	.	.	.	.
=80	=80	=80	=80	=80	=80	=80
!	!	!	!	! 	!	!LO:HP:b:t=dim.
*ped	*	*	*	*	*	*
!LO:TX:t=P:rendering:decrescendo nakłada się na laski nut i belkę:problem	!	!	!	!	!	!
(<8dd>L	(>8ff/L	.	>	(>4c#X	.	>
8g#X>	8ddd 8gg#X	.	.	.	.	.
8dd>	8ff	.	.	4cn	.	.
8g#>J	8dddJ 8gg#	.	]	.	.	.
4d>)	4fff/)	.	.	4B-X)	.	.
*Xped	*	*	*	*	*	*
.	.	.	.	.	.	.
=81	=81	=81	=81	=81	=81	=81
2.rF	2.rdd	.	.	(>4E	.	.
.	.	.	.	4F	.	.
.	.	.	.	4D)	.	.
=82	=82	=82	=82	=82	=82	=82
2.rF	2.rdd	.	.	4AA	.	.
!	!	!	!	!	!	!LO:DY:rj
.	.	.	.	(<8AAL	.	p
.	.	.	.	8BB-J)	.	.
.	.	.	.	(<8BB-L	.	.
.	.	.	.	8AAJ)	.	.
*clefG2	*	*	*	*	*	*
=83	=83	=83	=83	=83	=83	=83
*ped	*	*	*	*	*	*
(>8eeL	(>\8ggL	.	p>	2.rF	.	.
8b-	8eee 8ccc#X	.	.	.	.	.
8ee	8gg	.	.	.	.	.
8gJ	8eeeJ 8ccc#	.	.	.	.	.
4c#X)	4bbb-X)	.	]	.	.	.
*Xped	*	*	*	*	*	*
.	.	.	.	.	.	.
=84	=84	=84	=84	=84	=84	=84
*ped	*	*	*	*	*	*
(<8dd#XL>	(>8ff#X\L	.	>	2.rF	.	.
8a	8ddd#X 8cccn	.	.	.	.	.
8dd#	8ff#	.	.	.	.	.
8f#XJ	8ddd#J 8ccc	.	]	.	.	.
4c)	4aaa)	.	.	.	.	.
*Xped	*	*	*	*	*	*
.	.	.	.	.	.	.
=85	=85	=85	=85	=85	=85	=85
*ped	*	*	*	*	*	*
8cc\L>	(>8dd#XL	.	>	2.rF	.	.
(<8f#X	8ccc 8aa	.	.	.	.	.
8cc	8dd#	.	.	.	.	.
8d#XJ	8cccJ 8aa	.	]	.	.	.
4A)	4fff#X)	.	.	.	.	.
*Xped	*	*	*	*	*	*
.	.	.	.	.	.	.
=86	=86	=86	=86	=86	=86	=86
2.rdd	2.rdd	.	.	4AA'<	.	.
.	.	.	.	(<8AAL	.	.
.	.	.	.	8BB-J)	.	.
.	.	.	.	(<8BB-L	.	>
.	.	.	.	8AAJ)	.	]
!!LO:LB:g=original
=87	=87	=87	=87	=87	=87	=87
*ped	*	*	*	*	*	*
!	!	!	!LO:DY:rj	!	!	!
(<8dd\L>	(>8ff\L	.	pp>	2.rF	.	.
8g#X	8ddd 8bbn	.	.	.	.	.
8dd	8ff	.	.	.	.	.
8fJ	8dddJ 8bb	.	.	.	.	.
4Bn)	4ggg#X)	.	]	.	.	.
*Xped	*	*	*	*	*	*
.	.	.	.	.	.	.
=88	=88	=88	=88	=88	=88	=88
*ped	*	*	*	*	*	*
!	!LO:TX:b:i:t=smorz.	!	!	!	!	!
(<\8cc#XL>	(>8eeL	.	>	2.rF	.	.
8gn	8ccc#X 8bb-X	.	.	.	.	.
8cc#	8ee	.	.	.	.	.
8enJ	8ccc#J 8bb-	.	]	.	.	.
4B-X)	4gggn)	.	.	.	.	.
*Xped	*	*	*	*	*	*
.	.	.	.	.	.	.
=89	=89	=89	=89	=89	=89	=89
(<8b-L	(>8cc#XL	.	>	2.rF	.	.
8e	8bb- 8gg	.	.	.	.	.
8b-	8cc#	.	.	.	.	.
8c#XJ	8bb-J 8gg	.	.	.	.	.
8G)	8eee)	.	]	.	.	.
8r	8r	.	.	.	.	.
*clefF4	*	*	*	*	*	*
=90	=90	=90	=90	=90	=90	=90
4AA'<\ 4AAA'<\	4a'>^< 4e^< 4A<^< 4G<^<	.	f	4A	.	f
4r	4r	.	.	(>\8AL	.	.
.	.	.	.	8B-)	.	.
4r	4r	.	.	(>8B-	.	.
.	.	.	.	8AJ)	.	.
=91	=91	=91	=91	=91	=91	=91
4r	4r	.	.	(>8A\L	.	.
.	.	.	.	8d	.	.
4r	4r	.	.	8c#X	.	.
.	.	.	.	8dJ	.	.
!	!	!	!	!	!	!LO:DY:rj
4AA'<\ 4AAA'<\	4a'> 4g'> 4c#X'> 4A<'>	.	.	4e)^<	.	sf
=92	=92	=92	=92	=92	=92	=92
4D'<\ 4DD'<\	4a'> 4f'> 4d'> 4A<'>	.	.	4f	.	.
4r	4r	.	.	(>8A\L	.	.
.	.	.	.	8B-)	.	.
4r	4r	.	.	(>8B-	.	.
.	.	.	.	8AJ)	.	.
=93	=93	=93	=93	=93	=93	=93
4r	4r	.	.	(>8A\L	.	.
.	.	.	.	8F	.	.
4r	4r	.	.	8En	.	.
.	.	.	.	8DJ	.	.
4E'<\ 4EE'<\	4e'> 4d'> 4G#X<'>	.	.	4E)	.	.
!!LO:PB:g=original
=94	=94	=94	=94	=94	=94	=94
*	*^	*	*	*	*	*
4AA'<\	4e'> 4c#X'> 4A<'>	4ryy	.	.	4AA'<	.	.
4r	(>2a^>	4rA	.	.	4r	.	.
*	*	*	*	*	*clefG2	*	*
!	!	!	!	!LO:DY:rj	!	!	!
4A	.	4c#	.	p	(<4e	.	p
=95	=95	=95	=95	=95	=95	=95	=95
!	!LO:TUP:a	!	!	!	!	!	!
4A 4D	12aL	4d	.	.	4f)	.	.
.	12b-	.	.	.	.	.	.
.	12aJ	.	.	.	.	.	.
4r	8g#XL	4rA	.	.	(<2d	.	.
.	8bn	.	.	.	.	.	.
4A 4AA	8dd	4f	.	.	.	.	.
.	8ffJ	.	.	.	.	.	.
*	*v	*v	*	*	*	*	*
=96	=96	=96	=96	=96	=96	=96
4A 4AA	4ee\) 4cc#X\ 4e\	.	.	4a)	.	.
4r	4r	.	.	(<2e	.	.
4A 4AA	(>4a 4c#X	.	.	.	.	.
=97	=97	=97	=97	=97	=97	=97
*	*^	*	*	*	*	*
!	!LO:TUP:a	!	!	!	!	!	!
!	!LO:TX:t=P:stem-side tuplet number:problem	!	!	!	!	!	!
4A 4D	12aL	4d	.	.	4f)	.	.
.	12b-	.	.	.	.	.	.
.	12aJ	.	.	.	.	.	.
4r	8g#XL	4g#	.	<	(<2d	.	.
.	8bn	.	.	.	.	.	.
4A 4D	8dd	4f	.	.	.	.	.
.	8ffJ	.	.	[[	.	.	.
*	*v	*v	*	*	*	*	*
=98	=98	=98	=98	=98	=98	=98
4A 4AA	4ee\) 4cc#X\ 4e\	.	f	2.a)	.	.
*clefG2	*	*	*	*	*	*
!	!	!	!	!	!	!LO:HP:a
(<8aaL	(>8aaaL	.	>	.	.	<
8dd#X	8ddd#X	.	.	.	.	.
8ee	8eee	.	.	.	.	.
8ffJ	8fffJ	.	.	.	.	.
=99	=99	=99	=99	=99	=99	=99
8eeL	8eeem>L	.	.	(>2e	.	.
8a	8aa	.	.	.	.	.
8b-	8bb-	.	.	.	.	.
8cc	8ccc	.	.	.	.	.
8b-	8bb-	.	.	4cc#X)	.	.
.	.	.	.	.	.	[
8g#XJ	8gg#XJ	.	.	.	.	.
*	*X8va	*	*	*	*	*
=100	=100	=100	=100	=100	=100	=100
8aL	8aaL	.	.	2.cc#X	.	[[
8b-	8bb-	.	.	.	.	.
8a	8aa	.	.	.	.	.
8d#X	8dd#X	.	.	.	.	.
8e	8ee	.	.	.	.	.
8fJ	8ffJ	.	.	.	.	.
*clefF4	*	*	*	*clefF4	*	*
!!LO:LB:g=original
=101	=101	=101	=101	=101	=101	=101
8eL	8eem>L	.	.	2.rF	.	.
8A	8a	.	.	.	.	.
8B-	8b-	.	.	.	.	.
8c	8cc	.	.	.	.	.
8B-	8b-	.	.	.	.	.
8G#XJ	8g#XJ	.	.	.	.	.
.	.	.	]	.	.	.
=102	=102	=102	=102	=102	=102	=102
4A'< 4AA'>)	4a'<)	.	.	8A	.	.
.	.	.	.	8r	.	.
4r	4r	.	.	(>8B-\L	.	.
.	.	.	.	8A	.	.
4r	4r	.	.	8c	.	.
.	.	.	.	8B-J	.	.
=103	=103	=103	=103	=103	=103	=103
4AA'< 4AAA'<	4a'< 4e'< 4c#X'<	.	p	8G)	.	.
.	.	.	.	8r	.	.
4r	4r	.	.	(>8A\L	.	.
.	.	.	.	8G	.	.
4r	4r	.	.	8B-	.	.
.	.	.	.	8AJ	.	.
=104	=104	=104	=104	=104	=104	=104
4AA'< 4AAA'<	4a'< 4d'< 4B-'<	.	.	8F)	.	.
.	.	.	.	8r	.	.
4r	4r	.	.	(>8G\L	.	.
.	.	.	.	8F	.	.
4r	4r	.	.	8A	.	.
.	.	.	.	8GJ	.	.
=105	=105	=105	=105	=105	=105	=105
4AA'> 4AAA'>	4a'< 4c#X'< 4A'<	.	.	8E)	.	.
.	.	.	.	8r	.	.
4r	4r	.	.	(>8F\L	.	<
.	.	.	.	8E	.	.
!	!	!	!LO:DY:rj	!	!	!
4AA'<	4a'< 4A'<	.	f	8G	.	.
.	.	.	.	8FJ	.	[[
=106	=106	=106	=106	=106	=106	=106
4D'<\ 4DD'<\	4a'> 4f'> 4d'> 4A<'>	.	f	4D)	.	f
(>8AL	(<8aL	.	.	4r	.	.
8B-	8b-	.	.	.	.	.
8B-	8b-	.	.	4r	.	.
8AJ)	8aJ)	.	.	.	.	.
=107	=107	=107	=107	=107	=107	=107
(>8AL	(>8aL	.	.	4r	.	.
8d	8dd	.	.	.	.	.
8c#X	8cc#X	.	.	4r	.	.
8dJ)	8ddJ)	.	.	.	.	.
!	!	!	!	!LO:TX:t=P:vertical slur from 4AA to 4A:problem	!	!
4A'> 4AA'>	4ee'< 4cc#'< 4a'< 4g'< 4e'<	.	.	4A 4E 4AA	.	.
!!LO:LB:g=original
=108	=108	=108	=108	=108	=108	=108
!	!	!	!	!LO:TX:t=P:vertical slur:problem	!	!
4A'> 4D'>	4ff'> 4dd'> 4a'> 4f'>	.	.	4A 4D	.	.
(>8AL	(<8a/L	.	.	4r	.	.
8B-	8b-	.	.	.	.	.
8B-	8b-	.	.	4r	.	.
8AJ)	8aJ)	.	.	.	.	.
=109	=109	=109	=109	=109	=109	=109
(>8AL	(<8aL	.	.	4r	.	.
8F	8f	.	.	.	.	.
8E	8e	.	.	4r	.	.
8DJ)	8dJ)	.	.	.	.	.
4E 4AA	4e'> 4c^<'> 4A<'>	.	.	(>4E	.	.
=110	=110	=110	=110	=110	=110	=110
*	*^	*	*	*	*	*
4E 4AA	4e'> 4c'> 4A<'>	4rddyy	.	.	4c)	.	.
2D^>	(>2f#X	8cL	.	.	(>\8AL	.	.
.	.	8d	.	.	8B-X)	.	.
.	.	8c	.	.	(>8B-	.	.
.	.	8dJ	.	.	8AJ	.	.
=111	=111	=111	=111	=111	=111	=111	=111
4GG	4g	8B-L	.	.	4G)	.	.
.	.	8d	.	.	.	.	.
2C^< 2CC	4d	8B-	.	.	(>8G\L	.	.
.	.	8c	.	.	8A)	.	.
.	4e	8B-	.	.	(>8A	.	.
.	.	8cJ	.	.	8GJ	.	.
*	*v	*v	*	*	*	*	*
=112	=112	=112	=112	=112	=112	=112
*^	*	*	*	*	*	*
8AL	4FF	4f	.	.	4F)	.	.
8c	.	.	.	.	.	.	.
8A	2BBn^< 2BBBn	4c	.	.	(>8F\L	.	.
8Bn	.	.	.	.	8G)	.	.
8A	.	4d	.	.	(>8G	.	.
8BJ	.	.	.	.	8FJ	.	.
=113	=113	=113	=113	=113	=113	=113	=113
8G#XL	4EE	4e	.	.	4E)	.	.
8Bn	.	.	.	.	.	.	.
8Gn	2AA^< 2AAA	4Bn	.	.	(>8E\L	.	.
8A	.	.	.	.	8F)	.	.
8G	.	4c#X	.	.	(>8F	.	.
8AJ	.	.	.	.	8EJ	.	.
*v	*v	*	*	*	*	*	*
=114	=114	=114	=114	=114	=114	=114
4BB-\ 4BBB-\	4d 4F<)	.	fz	2.D)	.	.
*clefG2	*	*	*	*	*	*
(>8bb-L	(>8bbb-L	.	>	.	.	.
8een	8eeen	.	.	.	.	.
8ff	8fff	.	.	.	.	.
8ggJ	8gggJ	.	.	.	.	.
!!LO:LB:g=original
=115	=115	=115	=115	=115	=115	=115
8ffL	8fffM>L	.	.	2c	.	.
8a	8aa	.	.	.	.	.
8b-	8bb-	.	.	.	.	.
8cc	8ccc	.	.	.	.	.
8b-	8bb-	.	.	4B-	.	.
8eJ	8eeJ	.	.	.	.	.
*	*	*	*	*clefG2	*	*
=116	=116	=116	=116	=116	=116	=116
8fL	8ffL	.	.	2.a-X	.	.
8g	8gg	.	.	.	.	.
8f	8ff	.	.	.	.	.
*clefF4	*	*	*	*	*	*
8A	8a	.	.	.	.	.
8B-	8b-	.	.	.	.	.
8cJ	8ccJ	.	.	.	.	.
=117	=117	=117	=117	=117	=117	=117
8B-L	8b-M<L	.	.	2.rdd	.	.
8E	8e	.	.	.	.	.
8F	8f	.	.	.	.	.
8GJ	8gJ	.	.	.	.	.
4F)	4f)	.	]	.	.	.
=118	=118	=118	=118	=118	=118	=118
4r	4r	.	.	(<2.f	.	.
4r	4r	.	.	.	.	.
4BB-\ 4BBB-\	4b-X'> 4d'> 4A-X<'>	.	.	.	.	.
=119	=119	=119	=119	=119	=119	=119
4r	4r	.	.	4B-	.	.
4r	4r	.	.	4e-X	.	.
4E-X\ 4EE-X\	4g'> 4e-'> 4B-<'> 4G<'>	.	.	4d)	.	.
=120	=120	=120	=120	=120	=120	=120
*	*	*	*^	*	*	*
4r	4r	.	.	.	(<2.c#X	.	.
*ped	*	*	*	*	*	*	*
4En\ 4EEn\	4a'> 4g'> 4A<'>	.	<	<	.	.	.
4AA 4AAA	4aa'> 4gg'> 4a'>	.	.	.	.	.	.
*Xped	*	*	*	*	*	*	*
.	.	.	.	.	.	.	.
=121	=121	=121	=121	=121	=121	=121	=121
4r	4r	.	.	.	2.d#X)	.	<
*ped	*	*	*	*	*	*	*
4F#X'< 4FF#X'<	4a'< 4A'<	.	.	.	.	.	.
4AA'< 4AAA'<	4aa'> 4cc'> 4a'>	.	.	.	.	.	.
*Xped	*	*	*	*	*	*	*
=122	=122	=122	=122	=122	=122	=122	=122
4r	4r	.	.	.	2.e	.	[
*ped	*	*	*	*	*	*	*
4G'>\ 4GG'>\	4b-'< 4B-'<	.	.	.	.	.	.
4AA'< 4AAA'<	4bb-'> 4cc#X'> 4b-'>	.	.	[	.	.	.
*Xped	*	*	*	*	*	*	*
.	.	.	.	.	.	.	.
*	*	*	*v	*v	*	*	*
=123	=123	=123	=123	=123	=123	=123
2.rF	2.rdd	.	.	(<4B-	.	.
.	.	.	.	4e	.	.
!	!	!	!	!LO:TX:t=P:w źródle klucz G2 pojawia się dopiero na początkowu kolejnego systemu:problem	!	!
.	.	.	.	4d#X)	.	.
*	*	*	*	*clefG2	*	*
!!LO:LB:g=original
=124	=124	=124	=124	=124	=124	=124
*	*	*	*^	*	*	*
4r	4r	.	.	.	2.e	.	<
*ped	*	*	*	*	*	*	*
4G'</ 4GG'</	4b-'< 4B-'<	.	<	.	.	.	.
!LO:TX:t=P:w źródle "cresc." znajduje sie nad graficznym crescenden:problem	!	!	!	!	!	!	!
4AA'< 4AAA'<	4bb-'> 4cc#X'> 4b-'>	.	.	<	.	.	.
*Xped	*	*	*	*	*	*	*
=125	=125	=125	=125	=125	=125	=125	=125
4r	4r	.	.	.	2.f	.	.
*ped	*	*	*	*	*	*	*
4G#X'</ 4GG#X'</	4bn'< 4Bn'<	.	.	.	.	.	.
4AA'< 4AAA'<	4bbn'> 4dd#'> 4bny'>	.	.	.	.	.	.
*Xped	*	*	*	*	*	*	*
=126	=126	=126	=126	=126	=126	=126	=126
4r	4r	.	.	.	2.f#X	.	[
*ped	*	*	*	*	*	*	*
4A'> 4AA'>	4bn'< 4d#X'< 4Bn'<	.	.	.	.	.	.
4AA'< 4AAA'<	4bbn'> 4dd#X'> 4b'>	.	[	.	.	.	.
*Xped	*	*	*	*	*	*	*
*	*	*	*v	*v	*	*	*
=127	=127	=127	=127	=127	=127	=127
2.rF	2.rdd	.	.	(<4Bn	.	<
.	.	.	.	4f#X	.	.
.	.	.	.	4e#X)	.	.
=128	=128	=128	=128	=128	=128	=128
4r	4r	.	.	2.f#X	.	[[
*ped	*	*	*	*	*	*
4A'> 4AA'>	4cc'< 4c'<	.	<	.	.	.
4AA'< 4AAA'<	4ccc'> 4dd#X'> 4cc'>	.	.	.	.	.
*Xped	*	*	*	*	*	*
=129	=129	=129	=129	=129	=129	=129
!	!	!	!	!	!	!LO:HP:b:t=cresc.
4r	4r	.	.	2.g	.	<
*ped	*	*	*	*	*	*
4B-X'> 4BB-X'>	4cc#'< 4c#'<	.	.	.	.	.
4AA'< 4AAA'<	4ccc#'> 4ee'> 4cc#'>	.	.	.	.	.
*Xped	*	*	*	*	*	*
=130	=130	=130	=130	=130	=130	=130
4r	4r	.	.	2.g#X	.	.
*ped	*	*	*	*	*	*
4Bn'> 4BBn'>	4cc#X'< 4e#X'< 4c#X'<	.	.	.	.	.
4AA'< 4AAA'<	4ccc#X'> 4ee#X'> 4cc#'>	.	.	.	.	.
*Xped	*	*	*	*	*	*
=131	=131	=131	=131	=131	=131	=131
4r	4r	.	.	(>2.a	.	.
4A' 4AA	4cc#X 4f#X 4c#X	.	<	.	.	.
!	!LO:S:s=1:note:problem:note-level slur	!	!	!	!	!
*ped	*	*	*	*	*	*
4AA'< 4AAA'<	(>4ccc#X\ 4cc#\	.	.	.	.	.
=132	=132	=132	=132	=132	=132	=132
4a> 4e> 4A	4eee'</ 4gg'</)	.	[	4cc#X/)	.	.
.	.	.	.	.	.	.
*Xped	*	*	*	*	*	*
!	!	!	!	!	!	!LO:DY:a:rj
4r	4r	.	.	4bn\	.	f
4r	4r	.	.	4a/	.	.
=133	=133	=133	=133	=133	=133	=133
2.rF	2.rdd	.	.	(<4g	.	.
.	.	.	.	4d	.	.
.	.	.	.	4e)	.	.
!!LO:PB:g=original
=134||	=134||	=134||	=134||	=134||	=134||	=134||
*k[f#c#]	*k[f#c#]	*	*	*k[f#c#]	*	*
!LO:TX:b:i:t=legato	!	!	!	!LO:TX:a:t=cantabile	!	!
2.DD\	8r	.	.	(<2.f#	.	.
!	!	!	!LO:DY:rj	!	!	!
.	(>8A</L	.	p	.	.	.
.	8d	.	.	.	.	.
.	8F#<	.	.	.	.	.
.	8A<	.	.	.	.	.
.	8D<J)	.	.	.	.	.
=135	=135	=135	=135	=135	=135	=135
2.D	8r	.	.	2.g#X)	.	.
.	(>8B<L	.	.	.	.	.
.	8fn	.	.	.	.	.
.	8G#X<	.	.	.	.	.
.	8d	.	.	.	.	.
.	8Fn<J)	.	.	.	.	.
=136	=136	=136	=136	=136	=136	=136
2C#\	8r	.	.	(<4b\	.	.
.	(>8E<L	.	.	.	.	.
.	8e	.	.	4a	.	.
.	8A<	.	.	.	.	.
4D	8B<	.	.	4g#X)	.	.
.	8fnJ)	.	.	.	.	.
=137	=137	=137	=137	=137	=137	=137
2C#\	8r	.	.	(<2b\	.	.
.	(>8E<L	.	.	.	.	.
.	8A<	.	.	.	.	.
.	8e	.	.	.	.	.
4CC#\	8e	.	.	4a)	.	.
.	8E<J)	.	.	.	.	.
=138	=138	=138	=138	=138	=138	=138
2.CCn\	8r	.	.	(<2.e	.	.
.	(>8G<L	.	.	.	.	.
.	8cn<	.	.	.	.	.
.	8E<	.	.	.	.	.
.	8G<	.	.	.	.	.
.	8Cn<J)	.	.	.	.	.
=139	=139	=139	=139	=139	=139	=139
2.Cn\	8r	.	.	2.f#)	.	.
.	(>8A<L	.	.	.	.	.
.	8e-X	.	.	.	.	.
.	8F#<	.	.	.	.	.
.	8A<	.	.	.	.	.
.	8E-X<J)	.	.	.	.	.
!!LO:LB:g=original
=140	=140	=140	=140	=140	=140	=140
2BB\	8r	.	.	(<4a	.	.
.	(>8D<L	.	.	.	.	.
.	8G<	.	.	4g	.	.
.	8d	.	.	.	.	.
4Cn\	8A<	.	.	4f#)	.	.
.	8e-XJ)	.	.	.	.	.
=141	=141	=141	=141	=141	=141	=141
2BB\	8r	.	.	(<2a	.	.
.	(>8D<L	.	.	.	.	.
.	8G<	.	.	.	.	.
.	8d	.	.	.	.	.
4BBB\	8d	.	.	4g)	.	.
.	8D<J)	.	.	.	.	.
*	*	*	*	*clefF4	*	*
=142	=142	=142	=142	=142	=142	=142
2.GGG\	8r	.	.	2.B	.	.
.	(>8D<L	.	.	.	.	.
.	8G<	.	.	.	.	.
.	8d	.	.	.	.	.
.	8D<	.	.	.	.	.
.	8G<J)	.	.	.	.	.
=143	=143	=143	=143	=143	=143	=143
2.GG\	(>8D<L	.	.	(>2c#	.	.
.	8G<	.	.	.	.	.
.	8B<	.	.	.	.	.
.	8d	.	.	.	.	.
.	8D<	.	.	4B)	.	.
.	8G<J)	.	.	.	.	.
=144	=144	=144	=144	=144	=144	=144
!	!	!	!LO:DY:a	!	!	!
2.FF#\	8r	.	.	(>4A	.	<
.	(>8D<L	.	.	.	.	.
.	8A<	.	<	4B	.	.
.	8d	.	.	.	.	.
.	8D<	.	.	4c#)	.	.
.	8A<J)	.	.	.	.	.
=145	=145	=145	=145	=145	=145	=145
2.BBB\	8r	.	.	(>4d	.	.
.	(>8D<L	.	.	.	.	.
.	8A<	.	.	4e	.	.
.	8d	.	.	.	.	.
.	8D<	.	.	4f#)	.	[[
.	8A<J)	.	[	.	.	.
*	*	*	*	*clefG2	*	*
=146	=146	=146	=146	=146	=146	=146
[<2.EE\	(>8r	.	.	(>4e	.	.
.	8A<L	.	>	.	.	.
.	8e	.	.	4cc#	.	.
.	8E<	.	.	.	.	.
.	8A<	.	.	4dd)	.	.
.	8f#J	.	.	.	.	.
!!LO:LB:g=original
=147	=147	=147	=147	=147	=147	=147
2.EE\] 2.EEE\	8eL	.	.	(<4cc#\	.	.
.	8G#X<	.	.	.	.	.
.	8d	.	.	4b\	.	.
.	8E<	.	.	.	.	.
.	8G#<	.	.	4e	.	.
.	8dJ	.	]	.	.	.
=148	=148	=148	=148	=148	=148	=148
2.AA\ 2.AAA\	8E<L	.	<	4a)	.	.
.	8A<	.	.	.	.	.
.	8c#	.	.	4e	.	>
.	8e	.	.	.	.	.
.	8A<	.	.	[<(<4a	.	.
.	8cnJ	.	[[	.	.	.
=149	=149	=149	=149	=149	=149	=149
2.BB\ 2.BBB\	8F#<L	.	>	4a]	.	.
.	8A<	.	.	.	.	.
.	8B<	.	.	4g	.	.
.	8d#X	.	.	.	.	.
.	8A<	.	.	4f#)	.	]
.	8B<J)	.	]	.	.	.
=150	=150	=150	=150	=150	=150	=150
2.EE\	8r	.	.	(<2.g	.	.
.	(>8B<L	.	.	.	.	.
.	8e	.	.	.	.	.
.	8G<	.	.	.	.	.
.	8B<	.	.	.	.	.
.	8E<J)	.	.	.	.	.
=151	=151	=151	=151	=151	=151	=151
2.E	8r	.	.	2.a#X)	.	.
.	(>8c#L	.	.	.	.	.
.	8g	.	.	.	.	.
.	8A#<X	.	.	.	.	.
.	8e	.	.	.	.	.
.	8G<J)	.	.	.	.	.
=152	=152	=152	=152	=152	=152	=152
2D#X	8r	.	.	(>4cc#	.	.
.	(>8F#<L	.	.	.	.	.
.	8f#	.	.	4b	.	.
.	8B	.	.	.	.	.
4E	8c#	.	.	4a#X)	.	.
.	8gJ)	.	.	.	.	.
=153	=153	=153	=153	=153	=153	=153
2D#X	8r	.	.	(>2cc#	.	.
.	(>8F#<L	.	.	.	.	.
.	8B<	.	.	.	.	.
.	8f#	.	.	.	.	.
4DD#X\	8f#	.	.	4b)	.	.
.	8F#<J)	.	.	.	.	.
!!LO:LB:g=original
=154	=154	=154	=154	=154	=154	=154
2.DDn\	8r	.	.	(<2.f#	.	.
.	(>8A<L	.	.	.	.	.
.	8d<	.	.	.	.	.
.	8F#<	.	.	.	.	.
.	8A<	.	.	.	.	.
.	8D<J)	.	.	.	.	.
=155	=155	=155	=155	=155	=155	=155
2.D	8r	.	.	2.g#X)	.	.
.	(>8B<L	.	.	.	.	.
.	8fn	.	.	.	.	.
.	8G#X<	.	.	.	.	.
.	8B<	.	.	.	.	.
.	8Fn<J)	.	.	.	.	.
=156	=156	=156	=156	=156	=156	=156
2C#\	8r	.	.	(<4b\	.	.
.	(>8E<L	.	.	.	.	.
.	8e	.	.	4a	.	.
.	8A<	.	.	.	.	.
4D	8B<	.	.	4g#X)	.	.
.	8fnJ)	.	.	.	.	.
=157	=157	=157	=157	=157	=157	=157
2.C#\	8r	.	.	(>2b\	.	.
.	(>8E<L	.	.	.	.	.
.	8A<	.	.	.	.	.
.	8e	.	.	.	.	.
.	8e	.	.	4a)	.	.
.	8E<J)	.	.	.	.	.
=158	=158	=158	=158	=158	=158	=158
[<2.Cn\	8r	.	.	(>2.a	.	<
.	(>8A<L	.	.	.	.	.
.	8cn	.	.	.	.	.
.	8fn	.	.	.	.	.
.	8A<	.	.	.	.	.
.	8cJ	.	.	.	.	.
=159	=159	=159	=159	=159	=159	=159
2.CnX] 2.CCn	8G<L	.	.	2.b-X	.	[
.	8cn	.	.	.	.	.
.	8e	.	.	.	.	.
.	8g	.	.	.	.	.
.	8G<	.	.	.	.	.
.	[<8eJ	.	.	.	.	.
=160	=160	=160	=160	=160	=160	=160
2.BB\ 2.BBB\	8eL]	.	<	2.bn)	.	<
.	8G<	.	.	.	.	.
.	8e	.	.	.	.	.
.	8g	.	.	.	.	.
.	8G<	.	.	.	.	.
.	8eJ	.	.	.	.	.
!!LO:LB:g=original
=161	=161	=161	=161	=161	=161	=161
[>2.BB-X [<2.BBB-X	8G<L	.	.	(>2.ccn	.	.
.	8cn	.	.	.	.	.
.	8e	.	.	.	.	.
.	8g	.	.	.	.	.
.	8G<	.	.	.	.	.
.	[<8eJ	.	.	.	.	.
=162	=162	=162	=162	=162	=162	=162
2.BB-y\] 2.BBB-y\]	8eL]	.	.	2cc#X)	.	.
.	8G<	.	.	.	.	.
.	8e	.	.	.	.	.
.	8g	.	.	.	.	.
.	8G#X<	.	.	[>(>4dd	.	[[
.	8fnJ	.	.	.	.	.
=163	=163	=163	=163	=163	=163	=163
2AA\ 2AAA\	8f#XL	.	[	4dd]	.	.
.	8A<	.	.	.	.	.
.	8F#<	.	.	4d	.	.
.	8A<	.	.	.	.	.
4BB 4BBB	8G<	.	.	4g)	.	.
.	8d<J)	.	.	.	.	.
=164	=164	=164	=164	=164	=164	=164
2.AA\ 2.AAA\	(>8d<L	.	>	(<2.e	.	.
.	8E<	.	.	.	.	.
.	8A<	.	.	.	.	.
.	8d	.	.	.	.	.
.	8c#X<	.	.	.	.	.
.	8G<J	.	.	.	.	.
.	.	.	]	.	.	.
=165	=165	=165	=165	=165	=165	=165
2DD	8d<L	.	<	4d)	.	.
.	8F#<	.	.	.	.	.
.	8A<	.	.	4r	.	.
.	8f#	.	.	.	.	.
4AA\ 4AAA\	8f#	.	.	4c#	.	.
.	8F#<J)	.	[[	.	.	.
=166!|:	=166!|:	=166!|:	=166!|:	=166!|:	=166!|:	=166!|:
*>B	*>B	*	*	*>B	*	*
2.AA\ (<2.AAA\	(>8f#L	.	<	(<2c#	.	.
.	8c#	.	.	.	.	.
.	8f#	.	.	.	.	.
.	8F#<	.	.	.	.	.
.	8c#	.	.	4f#)	.	.
.	8C#<J)	.	.	.	.	.
=167	=167	=167	=167	=167	=167	=167
2.BB\ 2.BBB\	8r	.	.	(<2f#	.	.
.	8dL	.	.	.	.	.
.	8f#	.	.	.	.	.
.	8G#X<	.	.	.	.	.
.	8d	.	.	4g#X)	.	.
.	8F#<J	.	.	.	.	.
.	.	.	[	.	.	.
!!LO:PB:g=original
=168	=168	=168	=168	=168	=168	=168
[<2.C#\ 2.CC#\)	8r	.	.	(<4f#	.	<
.	(>8G#X<L	.	.	.	.	.
.	8c#	.	.	4e#X	.	.
.	8e#X	.	.	.	.	.
.	8G#<	.	.	4cc#)	.	.
.	.	.	.	.	.	[
.	8c#J)	.	.	.	.	.
=169	=169	=169	=169	=169	=169	=169
4C#\] 4CC#\	(>8E#X<L	.	.	[>2.cc#	.	.
.	8G#X<	.	.	.	.	.
!	!	!	!LO:HP:b=2	!	!	!
(>4GG#X\ 4GGG#X\	8c#	.	<	.	.	.
.	8e#X	.	.	.	.	.
4C#\) 4CC#\	8G#<	.	.	.	.	.
.	8c#J	.	[[	.	.	.
=170	=170	=170	=170	=170	=170	=170
2.C#\ 2.CC#\	8enL	.	.	(<2cc#]	.	.
.	8G#X<	.	.	.	.	.
.	8c#	.	.	.	.	.
.	8E<	.	.	.	.	.
.	8G#<	.	.	[<4en	.	.
.	8C#<J)	.	.	.	.	.
=171	=171	=171	=171	=171	=171	=171
2GG#X\ 2GGG#X\	8r	.	.	4e]	.	.
.	(>8B<L	.	.	.	.	.
.	8e	.	.	4g#X	.	.
.	8E<	.	.	.	.	.
4AA#X\ 4AAA#X\	8c#	.	.	4f#)	.	.
.	8F#<J)	.	.	.	.	.
=172	=172	=172	=172	=172	=172	=172
[<2.BB\ [<2.BBB\	8r	.	.	(<4e	.	<
.	(>8F#<L	.	.	.	.	.
.	8B<	.	.	4d#X	.	.
.	8d#X	.	.	.	.	.
.	8F#<	.	.	4b\)	.	.
.	8B<J	.	.	.	.	[[
=173	=173	=173	=173	=173	=173	=173
4BB\] 4BBB\]	8D#X<L	.	.	[>(>2.b\	.	.
.	8F#<	.	.	.	.	.
!	!	!	!LO:HP:b=2	!	!	!
(>4FF#\ 4FFF#\	8B<	.	<	.	.	.
.	8d#X	.	.	.	.	.
4BB\) 4BBB\	8F#<	.	.	.	.	.
.	8B<J	.	.	.	.	.
=174	=174	=174	=174	=174	=174	=174
2.BB\ 2.BBB\	8dnL	.	[	2b\]	.	.
.	8F#<	.	.	.	.	.
.	8B<	.	.	.	.	.
.	8Dn<	.	.	.	.	.
.	8F#<	.	.	(<4dn)	.	.
.	8B<J)	.	.	.	.	.
!!LO:LB:g=original
=175	=175	=175	=175	=175	=175	=175
2.GG#X\ 2.GGG#X\	8r	.	.	4d	.	.
.	(>8E<L	.	.	.	.	.
.	8B<	.	.	4f#	.	.
.	8d	.	.	.	.	.
.	8E<	.	.	4e)	.	.
.	8B<J)	.	.	.	.	.
=176	=176	=176	=176	=176	=176	=176
2.AA\ 2.AAA\	8r	.	.	(<4d	.	.
.	(>8E<L	.	.	.	.	.
.	8Gn<	.	.	4c#	.	.
.	8e	.	.	.	.	.
.	8e	.	.	4g)	.	.
.	8E<J)	.	.	.	.	.
=177	=177	=177	=177	=177	=177	=177
4BB-X\ 4BBB-X\	8r	.	.	[<2.g	.	.
.	(>8E<L	.	.	.	.	.
!	!	!	!LO:HP:b=2	!	!	!
(>4AA\ 4AAA\	8G<	.	<	.	.	.
.	8c#<	.	.	.	.	.
4E\) 4EE\	8c#<	.	.	.	.	.
.	8G<J)	.	.	.	.	.
=178	=178	=178	=178	=178	=178	=178
2E\ 2EE\	(>8r	.	[	4g]	.	.
.	8G<L	.	.	.	.	.
.	8c#X	.	.	4g	.	.
.	8b	.	>	.	.	.
4AA\ 4AAA\	8b	.	.	4g	.	.
.	8A<J	.	.	.	.	.
=179	=179	=179	=179	=179	=179	=179
2C#\ 2CC#\	8eL	.	.	(<2g	.	.
.	8G<	.	.	.	.	.
.	8A<	.	.	.	.	.
.	8a	.	.	.	.	.
4D 4DD	8A<	.	.	4f#)	.	.
.	8dJ)	.	]]	.	.	.
=180	=180	=180	=180	=180	=180	=180
2.AA\	(>8r	.	.	(<2.d#X	.	.
.	8A<L	.	.	.	.	.
.	8cn	.	.	.	.	.
.	8F#<	.	.	.	.	.
!	!LO:TX:t=P:w źródle "1" znajduje się pod łukiem:problem	!	!	!	!	!
.	8A<	1	.	.	.	.
.	8aJ	.	.	.	.	.
=181	=181	=181	=181	=181	=181	=181
2.AAA\	8G<L	1	.	2e	.	.
.	8A<	.	.	.	.	.
.	8c#X	.	.	.	.	.
.	8G<	2	.	.	.	.
.	8A<	1	.	4e#X)	.	.
.	8aJ)	.	.	.	.	.
!!LO:LB:g=original
=182	=182	=182	=182	=182	=182	=182
2.DD\	8r	.	.	(<2.f#	.	.
.	(>8A<L	.	.	.	.	.
.	8d	.	.	.	.	.
.	8F#<	.	.	.	.	.
.	8A<	.	.	.	.	.
.	8D<J)	.	.	.	.	.
=183	=183	=183	=183	=183	=183	=183
2.D	8r	.	.	2.g#X)	.	.
.	(>8BL	.	.	.	.	.
.	8fn	.	.	.	.	.
.	8G#<X	.	.	.	.	.
.	8B<	.	.	.	.	.
.	8D<J)	.	.	.	.	.
=184	=184	=184	=184	=184	=184	=184
2C#\	8r	.	.	(<\4b	.	.
.	(>8E<L	.	.	.	.	.
.	8A<	.	.	4a	.	.
.	8e	.	.	.	.	.
4D	8B<	.	.	4g#X)	.	.
.	8fnJ)	.	.	.	.	.
=185	=185	=185	=185	=185	=185	=185
2C#\	8r	.	.	(<\2b	.	.
.	(>8E<L	.	.	.	.	.
.	8A<	.	.	.	.	.
.	8e	.	.	.	.	.
4CC#\	8e	.	.	4a)	.	.
.	8E<J)	.	.	.	.	.
=186	=186	=186	=186	=186	=186	=186
2.CCn\	8r	.	.	(<2.e	.	.
.	(>8G<L	.	.	.	.	.
.	8cn<	.	.	.	.	.
.	8E<	.	.	.	.	.
.	8G<	.	.	.	.	.
.	8Cn<J)	.	.	.	.	.
=187	=187	=187	=187	=187	=187	=187
2.Cn\	8r	.	.	2.f#)	.	.
.	(>8A<L	.	.	.	.	.
.	8e-X	.	.	.	.	.
.	8F#X<	.	.	.	.	.
.	8A<	.	.	.	.	.
.	8E-X<J)	.	.	.	.	.
=188	=188	=188	=188	=188	=188	=188
2BB\	8r	.	.	(<4a	.	.
.	(>8D<L	.	.	.	.	.
.	8G<	.	.	4g	.	.
.	8d	.	.	.	.	.
4Cn\	8A<	.	.	4f#)	.	.
.	8e-XJ)	.	.	.	.	.
!!LO:LB:g=original
=189	=189	=189	=189	=189	=189	=189
2.BB\	8r	.	.	(<2a	.	.
.	(>8D<L	.	.	.	.	.
.	8G<	.	.	.	.	.
.	8d	.	.	.	.	.
.	8d	.	.	4g)	.	.
.	8G<J)	.	.	.	.	.
=190	=190	=190	=190	=190	=190	=190
[<2.BB-X\	8G<L	.	.	(<2.g	.	.
.	8B-X<	.	.	.	.	<
.	8e-X	.	.	.	.	.
.	8g	.	.	.	.	.
.	8G<	.	.	.	.	.
.	8B-<J	.	<	.	.	.
=191	=191	=191	=191	=191	=191	=191
2.BB-\] 2.BBB-X\	8Fn<L	.	.	2.a-X	.	.
.	8B-X<	.	.	.	.	.
.	8d	.	.	.	.	.
.	8fn	.	.	.	.	.
.	8F<	.	.	.	.	.
.	[<8dJ	.	.	.	.	.
=192	=192	=192	=192	=192	=192	=192
2.AA\ 2.AAA\	8dL]	.	.	2.an)	.	.
.	8Fn<	.	.	.	.	.
.	8d	.	.	.	.	.
.	8fn	.	.	.	.	.
.	8F<	.	.	.	.	.
.	[<8dJ	.	.	.	.	.
=193	=193	=193	=193	=193	=193	=193
2.AA-X\ 2.AAA-X\	8dL]	.	.	(>2.b-X	.	[
.	8Fn<	.	.	.	.	.
.	8d	.	.	.	.	.
.	8fn	.	.	.	.	.
.	8F<	.	[	.	.	.
.	[<8dJ	.	.	.	.	.
=194	=194	=194	=194	=194	=194	=194
2GG\ 2GGG\	8dL]	.	.	4bn	.	.
.	8Fn<	.	.	.	.	.
.	8d	.	.	4.cc#)	.	.
.	8fn	.	>	.	.	.
4GG#X\ 4GGG#X\	8B	.	.	.	.	.
.	8fJ	.	.	(>8dd	.	.
=195	=195	=195	=195	=195	=195	=195
2AA\ 2AAA\	8f#XL	.	.	2d	.	.
.	8A<	.	.	.	.	.
.	8F#<	.	.	.	.	.
.	8A<	.	.	.	.	.
4BB\ 4BBB\	8G<	.	.	4g)	.	.
.	8dJ	.	]	.	.	.
!!LO:LB:g=original
=196	=196	=196	=196	=196	=196	=196
!!LO:TX:a:B:t=1|a.
*>B1	*>B1	*	*	*>B1	*	*
!	!	!	!	!LO:TX:t=P:w źródłe "1|a." znajduje się po środku klamry volty:problem	!	!
2.AA\ 2.AAA\	8dL	.	>	[<(<2.e	.	.
.	8E<	.	.	.	.	.
.	8A<	.	.	.	.	.
.	8d	.	.	.	.	.
.	8c#	.	.	.	.	.
.	[>8G<J	.	]	.	.	.
=197	=197	=197	=197	=197	=197	=197
2DD\	8G<L]	.	]<	4e]	.	.
.	8F#<	.	.	.	.	.
.	8A<	.	.	4d	.	.
.	8d	.	.	.	.	.
4AA\ 4AAA\	8f#	.	.	4c#)	.	.
.	8F#<J)	.	.	.	.	.
.	.	.	[	.	.	.
=198:|!	=198:|!	=198:|!	=198:|!	=198:|!	=198:|!	=198:|!
!!LO:TX:a:B:t=2|a.
*>B2	*>B2	*>	*	*>B2	*	*
*ped	*	*	*	*	*	*
!	!	!	!	!LO:TX:t=P:w źródłe "2|a." znajduje się po środku klamry volty:problem	!	!
[<2.AA\ [<2.AAA\	(>8c#XL	.	[ p	(<2.e	.	.
.	8G<	.	.	.	.	.
.	8B-X<	.	.	.	.	.
.	8E<	.	.	.	.	.
.	8G<	.	.	.	.	.
*Xped	*	*	*	*	*	*
.	8B-<J	.	.	.	.	.
=199	=199	=199	=199	=199	=199	=199
*>C	*>C	*	*	*>C	*	*
*ped	*	*	*	*	*	*
2.AA\_< 2.AAA\_<	8d#XL	.	]	2.f#)	.	.
.	8A<	.	.	.	.	.
.	8Bn<	.	.	.	.	.
.	8F#<	.	.	.	.	.
.	8A<	.	.	.	.	.
.	8B<J	.	.	.	.	.
*Xped	*	*	*	*	*	*
.	.	.	.	.	.	.
=200	=200	=200	=200	=200	=200	=200
*ped	*	*	*	*	*	*
2.AA\_< 2.AAA\_<	8eL	.	.	(<2.g	.	.
.	8B-X	.	.	.	.	.
.	8c#X	.	.	.	.	.
.	8E<	.	.	.	.	.
.	8B-X<	.	.	.	.	.
*Xped	*	*	*	*	*	*
.	8c#J	.	.	.	.	.
=201	=201	=201	=201	=201	=201	=201
*ped	*	*	*	*	*	*
2.AA\] 2.AAA\]	8fnL	.	.	2.g#X	.	.
.	8B-X	.	.	.	.	.
.	8d	.	.	.	.	.
.	8Fn<	.	.	.	.	.
.	8B-	.	.	.	.	.
*Xped	*	*	*	*	*	*
.	8dJ	.	.	.	.	.
=202	=202	=202	=202	=202	=202	=202
*ped	*	*	*	*	*	*
2.AA\ 2.AAA\	8c#L	.	.	4a)	.	.
.	8A<	.	.	.	.	.
.	8c#	.	.	4r	.	.
.	8E<	.	.	.	.	.
.	8A<	.	.	4r	.	.
*Xped	*	*	*	*	*	*
.	8c#J	.	.	.	.	.
!!LO:PB:g=original
=203	=203	=203	=203	=203	=203	=203
*ped	*	*	*	*	*	*
2.DD\	8dL	.	<	(<2.f#tt>	.	.
.	8A<	.	.	.	.	.
.	8cn	.	.	.	.	.
.	8D<	.	.	.	.	.
.	8A<	.	.	.	.	.
*Xped	*	*	*	*	*	*
.	8cJ	.	.	.	.	.
.	.	.	.	16qqe/L	.	.
.	.	.	.	16qqf#/J	.	.
=204	=204	=204	=204	=204	=204	=204
*ped	*	*	*	*	*	*
2.GG\	8B<L	.	.	2.g	.	.
.	8G<	.	.	.	.	.
.	8B<	.	.	.	.	.
.	8D<	.	.	.	.	.
.	8B<	.	.	.	.	.
*Xped	*	*	*	*	*	*
.	8fnJ	.	[	.	.	.
=205	=205	=205	=205	=205	=205	=205
*	*^	*	*	*	*	*
*ped	*	*	*	*	*	*	*
!	!LO:N:vis=2	!	!	!	!	!	!
2.EE\	8eL	2e/	.	>	2.g#X	.	.
.	8B</	.	.	.	.	.	.
.	8d	.	.	.	.	.	.
.	8E<	.	.	.	.	.	.
.	8B<	4rgyy	.	.	.	.	.
*Xped	*	*	*	*	*	*	*
.	8dJ	.	.	]	.	.	.
*	*v	*v	*	*	*	*	*
=206	=206	=206	=206	=206	=206	=206
*ped	*	*	*	*	*	*
2.AA\ 2.AAA\	8eL	.	]	2.a)	.	.
.	8A<	.	.	.	.	.
.	8c#X	.	.	.	.	.
.	8E<	.	.	.	.	.
.	8A<	.	.	.	.	.
*Xped	*	*	*	*	*	*
.	8c#J	.	.	.	.	.
=207	=207	=207	=207	=207	=207	=207
*ped	*	*	*	*	*	*
2.EE\	8eL	.	pp	(<2.b-X\	.	.
.	8G<	.	.	.	.	.
.	8d	.	.	.	.	.
.	8E<	.	.	.	.	.
.	8G<	.	.	.	.	.
*Xped	*	*	*	*	*	*
.	8dJ	.	.	.	.	.
=208	=208	=208	=208	=208	=208	=208
*ped	*	*	*	*	*	*
2.AA\ 2.AAA\	8eL	.	.	2.a)	.	.
.	8G<	.	.	.	.	.
.	8c#	.	.	.	.	.
.	8E<	.	.	.	.	.
.	8G<	.	.	.	.	.
*Xped	*	*	*	*	*	*
.	8c#J	.	.	.	.	.
=209	=209	=209	=209	=209	=209	=209
*ped	*	*	*	*	*	*
2.EE\	8eL	.	.	[>2.b-X	.	.
.	8G<	.	.	.	.	.
.	8d	.	.	.	.	.
.	8E<	.	.	.	.	.
.	8G<	.	.	.	.	.
*Xped	*	*	*	*	*	*
.	8dJ	.	.	.	.	.
!!LO:LB:g=original
=210	=210	=210	=210	=210	=210	=210
4AA'< 4AAA'<	4e'>) 4c#X'> 4G<'>	.	.	8b-]	.	.
.	.	.	.	8r	.	.
4r	4r	.	.	(<8a/L	.	.
.	.	.	.	8g	.	.
4r	4r	.	.	8b-X	.	.
.	.	.	.	8aJ	.	.
=211	=211	=211	=211	=211	=211	=211
2.rF	2.rdd	.	.	8g)	.	.
.	.	.	.	8r	.	.
.	.	.	.	(<8fnL	.	.
.	.	.	.	8e	.	.
.	.	.	.	8g	.	.
.	.	.	.	8fJ	.	.
=212	=212	=212	=212	=212	=212	=212
2.rF	2.rdd	.	.	8e)	.	.
.	.	.	.	8r	.	.
.	.	.	.	(>8dL	.	.
.	.	.	.	8c#	.	.
.	.	.	.	8e	.	.
.	.	.	.	8dJ	.	.
*	*	*	*	*clefF4	*	*
=213	=213	=213	=213	=213	=213	=213
2.rF	2.rdd	.	.	8c#)	.	.
.	.	.	.	8r	.	.
.	.	.	.	(>8B-X\L	.	<
.	.	.	.	8A	.	.
.	.	.	.	8cn	.	.
.	.	.	.	8B-J	.	.
.	.	.	.	.	.	[[
=214||	=214||	=214||	=214||	=214||	=214||	=214||
*k[b-]	*k[b-]	*	*	*k[b-]	*	*
!	!	!	!LO:DY:rj	!	!	!
4D'<\ 4DD'<\	4a'> 4f 4d'> 4A<'>	.	f	4A)	.	f
4r	4r	.	.	(>\8AL	.	.
.	.	.	.	8B-J)	.	.
4r	4r	.	.	(>\8B-L	.	.
.	.	.	.	8AJ)	.	.
=215	=215	=215	=215	=215	=215	=215
4r	4r	.	.	(>8A\L	.	.
.	.	.	.	8d	.	.
4r	4r	.	.	8c#X	.	.
.	.	.	.	8dJ	.	.
4AA'<\ 4AAA'<\	4a'> 4g'> 4c#X'> 4A<'>	.	.	4e)	.	.
=216	=216	=216	=216	=216	=216	=216
4D'<\ 4DD'<\	4a'> 4f'> 4d'> 4A<'>	.	.	4f	.	.
4r	4r	.	.	(>8A\L	.	.
.	.	.	.	8B-J)	.	.
4r	4r	.	.	(>8B-\L	.	.
.	.	.	.	8AJ)	.	.
=217	=217	=217	=217	=217	=217	=217
4r	4r	.	.	(>8A\L	.	.
.	.	.	.	8F	.	.
4r	4r	.	.	8E	.	.
.	.	.	.	8DJ	.	.
4E'<\ 4EE'<\	4e'> 4d'> 4G#X<'>	.	.	4E)	.	.
!!LO:LB:g=original
=218	=218	=218	=218	=218	=218	=218
*	*^	*	*	*	*	*
4E\ 4AA\	4e'> 4c#X'> 4A<'>	4ryy	.	.	4AA	.	.
4r	(>2a^>	4rc	.	.	4r	.	.
*	*	*	*	*	*clefG2	*	*
!	!	!	!	!LO:DY:rj	!	!	!
4A	.	4c#	.	p	(<4e	.	p
=219	=219	=219	=219	=219	=219	=219	=219
!	!LO:TUP:a	!	!	!	!	!	!
4A 4D	12aL	4d	.	.	4f)	.	.
.	12b-	.	.	.	.	.	.
.	12aJ	.	.	.	.	.	.
4r	8g#XL	4rA	.	.	(<2d	.	.
.	8bn	.	.	.	.	.	.
*ped	*	*	*	*	*	*	*
4A 4D	8dd	4f	.	.	.	.	.
.	8ffJ	.	.	.	.	.	.
*	*v	*v	*	*	*	*	*
=220	=220	=220	=220	=220	=220	=220
4A'> 4AA'>	4ee'</) 4cc#X'</ 4e'</	.	.	4a)	.	.
4r	4r	.	.	(<2e	.	.
4A'> 4AA'>	(>4a'< 4c#X'<	.	.	.	.	.
*Xped	*	*	*	*	*	*
.	.	.	.	.	.	.
=221	=221	=221	=221	=221	=221	=221
*	*^	*	*	*	*	*
!	!LO:TUP:a	!	!	!	!	!	!
4A'> 4D'>	12aL	4d	.	.	4f)	.	.
.	12b-	.	.	.	.	.	.
.	12aJ	.	.	.	.	.	.
4r	8g#XL	4rA	.	.	(<2d	.	.
.	8bn	.	.	<	.	.	.
*ped	*	*	*	*	*	*	*
4A'> 4D'>	8dd	4f	.	.	.	.	.
.	8ffJ	.	.	.	.	.	.
*Xped	*	*	*	*	*	*	*
.	.	.	.	[[	.	.	.
*	*v	*v	*	*	*	*	*
=222	=222	=222	=222	=222	=222	=222
*ped	*	*	*	*	*	*
4A'> 4AA'>	4ee'</) 4cc#X'</ 4e'</	.	[ f	2.a)	.	.
*clefG2	*	*	*	*	*	*
(>8aaL	(>8aaaL	.	.	.	.	.
8dd#X	8ddd#X	.	.	.	.	.
8ee	8eee	.	.	.	.	.
8ffJ	8fffJ	.	.	.	.	.
=223	=223	=223	=223	=223	=223	=223
8eeL	8eeem>L	.	.	(<2e	.	.
8a	8aa	.	.	.	.	.
8b-	8bb-	.	.	.	.	.
8cc	8ccc	.	.	.	.	.
8b-	8bb-	.	.	4cc#X)	.	.
8g#XJ	8gg#XJ	.	.	.	.	.
=224	=224	=224	=224	=224	=224	=224
8aL	8aaL	.	.	2.cc#X	.	.
8b-	8bb-	.	.	.	.	.
8a	8aa	.	.	.	.	.
*Xped	*	*	*	*	*	*
8d#X	8dd#X	.	.	.	.	.
8e	8ee	.	.	.	.	.
8fJ	8ffJ	.	.	.	.	.
*clefF4	*	*	*	*clefF4	*	*
!!LO:LB:g=original
=225	=225	=225	=225	=225	=225	=225
8eL	8eem>L	.	[	2.rF	.	.
8A	8a	.	.	.	.	.
8B-	8b-	.	.	.	.	.
8c	8cc	.	.	.	.	.
8B-	8b-	.	.	.	.	.
8G#XJ	8g#XJ	.	.	.	.	.
=226	=226	=226	=226	=226	=226	=226
4A'> 4AA'>)	4a'<)	.	.	8A	.	.
.	.	.	.	8r	.	.
4r	4r	.	.	(>8B-\L	.	.
.	.	.	.	8A	.	.
4r	4r	.	.	8c	.	.
.	.	.	.	8B-J	.	.
=227	=227	=227	=227	=227	=227	=227
4AA'< 4AAA'<	4a'< 4e'< 4c#X'<	.	.	8G)	.	.
.	.	.	.	8r	.	.
4r	4r	.	.	(>8A\L	.	.
.	.	.	.	8G	.	.
4r	4r	.	.	8B-	.	.
.	.	.	.	8AJ	.	.
=228	=228	=228	=228	=228	=228	=228
4AA'< 4AAA'<	4a'< 4d'< 4B-'<	.	.	8F)	.	.
.	.	.	.	8r	.	.
4r	4r	.	.	(>8G\L	.	.
.	.	.	.	8F	.	.
4r	4r	.	.	8A	.	.
.	.	.	.	8GJ	.	.
=229	=229	=229	=229	=229	=229	=229
4AA'< 4AAA'<	4a'< 4c#X'< 4A'<	.	.	8E)	.	.
.	.	.	.	8r	.	.
4r	4r	.	.	(>8F\L	.	<
.	.	.	.	8E	.	.
!	!	!	!LO:DY:rj	!	!	!
!LO:TX:t=P:w źródle "f" znajduje się niżej:problem	!	!	!	!	!	!
4AA'<	4a'< 4A'<	.	f	8G	.	.
.	.	.	.	8FJ	.	.
=230	=230	=230	=230	=230	=230	=230
4D'< 4DD'<	4a'< 4f'< 4d'< 4A'<	.	.	4D)	.	[
(>8AL	(<8aL	.	.	4r	.	.
8B-	8b-	.	.	.	.	.
8B-	8b-	.	.	4r	.	.
8AJ)	8aJ)	.	.	.	.	.
=231	=231	=231	=231	=231	=231	=231
(>8AL	(>8aL	.	.	4r	.	.
8d	8dd	.	.	.	.	.
8c#X	8cc#X	.	.	4r	.	.
8dJ)	8ddJ)	.	.	.	.	.
!	!	!	!	!	!	!LO:DY:rj
4A'> 4AA'>	4ee'> 4cc#'> 4a'> 4g'>	.	.	4A 4E 4AA	.	f
!!LO:PB:g=original
=232	=232	=232	=232	=232	=232	=232
4A 4D	4ff'> 4dd'> 4a'> 4f'>	.	.	4A 4D	.	.
(>8AL	(<8aL	.	.	4r	.	.
8B-	8b-	.	.	.	.	.
8B-	8b-	.	.	4r	.	.
8AJ)	8aJ)	.	.	.	.	.
=233	=233	=233	=233	=233	=233	=233
(>8AL	(<8aL	.	.	4r	.	.
8F	8f	.	.	.	.	.
8E	8e	.	.	4r	.	.
8DJ)	8dJ)	.	.	.	.	.
4E'<\ 4AA'<\	4e'> 4c'> 4A<'>	.	.	(>4E	.	.
=234	=234	=234	=234	=234	=234	=234
*	*^	*	*	*	*	*
4E'<\ 4AA'<\	4e'> 4c'> 4A<'>	4ryy	.	.	4c)	.	.
2D^<\	(>2f#X	8cL	.	.	(>8A\L	.	.
.	.	8d	.	.	8B-)	.	.
.	.	8c	.	.	(>8B-	.	.
.	.	8dJ	.	.	8AJ	.	.
=235	=235	=235	=235	=235	=235	=235	=235
4GG	4g	8B-L	.	.	4G)	.	.
.	.	8d	.	.	.	.	.
2C^< 2CC	4d	8B-	.	.	(>8G\L	.	.
.	.	8c	.	.	8A)	.	.
.	4e	8B-	.	.	(>8A	.	.
.	.	8cJ	.	.	8GJ	.	.
=236	=236	=236	=236	=236	=236	=236	=236
4FF	4f	8A<L	.	.	4F)	.	.
.	.	8c<	.	.	.	.	.
2BBn^< 2BBBn	4c	8A<	.	.	(>8F\L	.	.
.	.	8Bn<	.	.	8G)	.	.
.	4d	8A<	.	.	(>8G	.	.
.	.	8B<J	.	.	8FJ	.	.
=237	=237	=237	=237	=237	=237	=237	=237
4EE\	4e	8G#X<L	.	.	4E)	.	.
.	.	8Bn<	.	.	.	.	.
2AA^< 2AAA	4Bn	8Gn<	.	.	(>8E\L	.	.
.	.	8A<	.	.	8F)	.	.
.	4c#X	8G<	.	.	(>8F	.	.
.	.	8A<J	.	.	8EJ	.	.
*	*v	*v	*	*	*	*	*
=238	=238	=238	=238	=238	=238	=238
*ped	*	*	*	*	*	*
4BB- 4BBB-	4d) 4F<	.	.	2.D)	.	.
*clefG2	*	*	*	*	*	*
(8bb-L	(>8bbb-L	.	>	.	.	.
8een	8eeen	.	.	.	.	.
8ff	8fff	.	.	.	.	.
8ggJ	8gggJ	.	.	.	.	.
!!LO:LB:g=original
=239	=239	=239	=239	=239	=239	=239
8ff/L	8fffL	.	.	(>2c	.	<
8a	8aa	.	.	.	.	.
8b-	8bb-	.	.	.	.	.
8cc	8ccc	.	.	.	.	.
8b-	8bb-	.	.	4B-)	.	.
*Xped	*	*	*	*	*	*
8eJ	8eeJ	.	.	.	.	.
*	*	*	*	*clefG2	*	*
=240	=240	=240	=240	=240	=240	=240
8f/L	8ffL	.	.	2.a-X	.	[
8g	8gg	.	.	.	.	.
8f	8ff	.	.	.	.	.
8A	8a	.	.	.	.	.
8B-	8b-	.	.	.	.	.
8cJ	8ccJ	.	.	.	.	.
*clefF4	*	*	*	*	*	*
=241	=241	=241	=241	=241	=241	=241
8B-L	8b-M<L	.	.	2.rdd	.	.
8E	8e	.	.	.	.	.
8F	8f	.	.	.	.	.
8GJ	8gJ	.	.	.	.	.
4F)	4f)	.	]	.	.	.
=242	=242	=242	=242	=242	=242	=242
!	!	!	!	!	!	!LO:DY:rj
4r	4r	.	.	(<2.f	.	f
4r	4r	.	.	.	.	.
4BB-'<\ 4BBB-'<\	4b-'> 4d'> 4A-X<'>	.	.	.	.	.
=243	=243	=243	=243	=243	=243	=243
4r	4r	.	.	4B-	.	.
4r	4r	.	.	4e-X	.	.
4E-X'<\ 4EE-X'<\	4g'> 4e-X'> 4B-<'> 4G<'>	.	.	4d)	.	.
=244	=244	=244	=244	=244	=244	=244
4r	4r	.	.	2.c#X	.	.
4En'<\ 4EEn'<\	4a'> 4g'> 4A<'>	.	<	.	.	.
4AA'<\ 4AAA'<\	4aa'> 4gg'> 4a'>	.	.	.	.	.
.	.	.	[	.	.	.
=245	=245	=245	=245	=245	=245	=245
4r	4r	.	.	2.d	.	.
4D'<\ 4DD'<\	4a'> 4d'> 4A<'>	.	.	.	.	.
4f'< 4d'< 4A'<	4aa'> 4ff'> 4a'>	.	.	.	.	.
*	*	*	*	*clefF4	*	*
=246	=246	=246	=246	=246	=246	=246
4r	4r	.	.	(>2.cn	.	.
*ped	*	*	*	*	*	*
4D'< 4DD'<	4a'> 4f#X'> 4e-X'>	.	.	.	.	.
*Xped	*	*	*	*	*	*
4a>'< 4f>'< 4e>'< 4c>'<	4aa'> 4ff#X'> 4ee-X'> 4cc'>	.	.	.	.	.
!!LO:LB:g=original
=247	=247	=247	=247	=247	=247	=247
4r	4r	.	.	4F#X	.	.
*ped	*	*	*	*	*	*
4D'< 4DD'<	4f#X 4e-X 4c	.	.	4B-	.	.
4f>'< 4e>'< 4c>'<	4ff#X'> 4ee-X'> 4cc'>	.	.	4A)	.	.
*Xped	*	*	*	*	*	*
.	.	.	.	.	.	.
=248	=248	=248	=248	=248	=248	=248
4r	4r	.	.	2.G	.	.
*ped	*	*	*	*	*	*
4D'< 4DD'<	4g'> 4e-X'> 4B-'>	.	>	.	.	.
4g>'< 4e>'< 4B->'<	4gg'> 4ee-X'> 4b-'>	.	.	.	.	.
*Xped	*	*	*	*	*	*
=249	=249	=249	=249	=249	=249	=249
4r	4r	.	.	(>4C#X	.	.
*ped	*	*	*	*	*	*
4D'<\ 4DD'<\	4c#X'> 4B-'> 4G<'>	.	.	4F	.	.
4c#X'> 4B-'> 4G'>	4cc#X'> 4b-'> 4g'>	.	.	4E)	.	.
*Xped	*	*	*	*	*	*
=250	=250	=250	=250	=250	=250	=250
4r	4r	.	.	(>2.E-X	.	.
*ped	*	*	*	*	*	*
4DD'<\	4cn'> 4G<'>	.	.	.	.	.
4cn'> 4G'>	4ccn'> 4g'>	.	.	.	.	.
*Xped	*	*	*	*	*	*
=251	=251	=251	=251	=251	=251	=251
4r	4r	.	.	2.D)	.	.
*ped	*	*	*	*	*	*
4DD'<\	4c< 4A<	.	.	.	.	.
4A'>	4f#X'< 4c'<	.	.	.	.	.
*Xped	*	*	*	*	*	*
.	.	.	.	.	.	.
=252	=252	=252	=252	=252	=252	=252
4r	4r	.	.	(<2.BB-	.	.
*ped	*	*	*	*	*	*
4DD'<	4r	.	.	.	.	.
!	!	!	!	!	!	!LO:HP:t=dim.
4rAA	4g 4d 4G<	.	.	.	.	>
*Xped	*	*	*	*	*	*
=253	=253	=253	=253	=253	=253	=253
4r	4r	.	.	2.GG	.	.
[<2DD	4r	.	.	.	.	.
.	4e 4c#X 4B-	.	.	.	.	.
=254	=254	=254	=254	=254	=254	=254
*	*^	*	*	*	*	*
*ped	*	*	*	*	*	*	*
4DD/]	4f 4d 4A<	4ryy	.	pp	4DD)	.	.
4r	(>2dd^>	4rcyy	.	.	(<8DDL	.	.
.	.	.	.	.	8EE-XJ)	.	.
*Xped	*	*	*	*	*	*	*
!	!	!LO:TX:a:t=P:note position:4a> 4d> 4A przed 4f:problem	!	!	!	!	!
4a> 4d> 4A	.	4f/	.	.	(<8EE-L	.	.
.	.	.	.	.	8DDJ)	.	.
!!LO:LB:g=original
=255	=255	=255	=255	=255	=255	=255	=255
*ped	*	*	*	*	*	*	*
!	!LO:TUP:a	!	!	!	!	!	!
!	!	!LO:TX:a:t=P:note position:4b-> 4d> 4B-> przed 4g:problem	!	!	!	!	!
4b-> 4d> 4B->	12ddL	4g	.	.	(<4DD	.	<
.	12ee	.	.	.	.	.	.
.	12ddJ	.	.	.	.	.	.
4r	8cc#XL	4cc#X	.	.	2GG	.	[
*Xped	*	*	*	*	*	*	*
!	!	!	!	!	!	!	!LO:HP:a
.	8ee	.	.	.	.	.	>
*ped	*	*	*	*	*	*	*
4g 4d 4G	8gg	4b-	.	.	.	.	.
.	8bb-XJ	.	.	.	.	.	]]
*Xped	*	*	*	*	*	*	*
.	.	.	.	.	.	.	.
=256	=256	=256	=256	=256	=256	=256	=256
*ped	*	*	*	*	*	*	*
4d 4D	4aa) 4ff#X 4a	4reeeyy	.	.	4DD)	.	.
4r	(>2dd^>	4reyy	.	.	(<8DDL	.	]
.	.	.	.	.	8EE-XJ)	.	.
!	!	!LO:TX:a:t=P:note position:4a> 4d> 4A przed 4f#X:problem	!	!	!	!	!
4a> 4d> 4A	.	4f#X/	.	.	(<8EE-L	.	.
*Xped	*	*	*	*	*	*	*
.	.	.	.	.	8DDJ)	.	.
=257	=257	=257	=257	=257	=257	=257	=257
*ped	*	*	*	*	*	*	*
!	!LO:TUP:a	!LO:TX:a:t=P:note position:4b-> 4d> 4B- przed 4g:problem	!	!	!	!	!LO:HP:a
4b-> 4d> 4B-	12ddL	4g\	.	.	(<4DD	.	<
.	12ee	.	.	.	.	.	.
.	12ddJ	.	.	.	.	.	[[
!	!	!	!	!	!	!	!LO:HP:a
4r	8cc#XL	4cc#X	.	.	2GG	.	>
.	8ee	.	.	.	.	.	.
4g 4d 4G	8gg	4b-	.	.	.	.	.
*Xped	*	*	*	*	*	*	*
.	8bb-J	.	.	.	.	.	]
*	*v	*v	*	*	*	*	*
=258	=258	=258	=258	=258	=258	=258
*ped	*	*	*	*	*	*
4d 4D	4aa) 4ff#X 4a	.	.	4DD)	.	.
4r	4r	.	.	(<8DDL	.	]
.	.	.	.	8EE-X)	.	.
!	!	!	!	!LO:TX:b:t=smorz.	!	!
4r	4r	.	.	(<8EE-	.	.
.	.	.	.	8DDJ)	.	.
=259	=259	=259	=259	=259	=259	=259
!	!LO:TX:a:t=P:note position:4a>'< 4d'< 4A'< przed 4ff#X'>/ 4dd'>/ 4f#X'>/:problem	!	!	!	!	!
4a>'< 4d'< 4A'<	4ff#X'>/ 4dd'>/ 4f#X'>/	.	.	4r	.	.
4r	4r	.	.	(<8DDL	.	.
.	.	.	.	8EE-X)	.	.
4r	4r	.	.	(<8EE-	.	.
*Xped	*	*	*	*	*	*
.	.	.	.	8DDJ)	.	.
=260	=260;	=260;>	=260	=260;>	=260	=260
!	!	!	!	!	!	!LO:DY:rj
4d'> 4A'> 4D'>	4ddd'> 4ff#X'> 4dd'>	.	ff	4A 4D 4AA 4DD	.	ff
4r	4r	.	.	4r	.	.
4r	4r	.	.	4r	.	.
==	==	==	==	==	==	==
*-	*-	*-	*-	*-	*-	*-
!!!RDF**kern: > = above
!!!RDF**kern: < = below
!!!RDF**kern: N = linked
!!!RDF**dynam: < = "cresc.", fontstyle="italic"
!!!RDF**dynam: > = "dim.", fontstyle="italic"
!!!system-decoration: (s1){(s2,s3)}
!!!ENC: Emilia Ziętek
!!!END: 2020-04-01
!!!EED: Antoni Szymański
!!!EST: 2020-04-07
!!!RDF**kern: j = marked note, color="magenta", text="extra)"
